; generated by PrusaSlicer 2.2.0+ on 2021-01-04 at 04:53:50 UTC

; 

; external perimeters extrusion width = 0.45mm
; perimeters extrusion width = 0.45mm
; infill extrusion width = 0.45mm
; solid infill extrusion width = 0.45mm
; top infill extrusion width = 0.40mm
; support material extrusion width = 0.35mm
; first layer extrusion width = 0.42mm

M73 P0 R61
M73 Q0 S61
M201 X1000 Y1000 Z200 E5000 ; sets maximum accelerations, mm/sec^2
M203 X200 Y200 Z12 E120 ; sets maximum feedrates, mm/sec
M204 P1250 R1250 T1250 ; sets acceleration (P, T) and retract acceleration (R), mm/sec^2
M205 X8.00 Y8.00 Z0.40 E4.50 ; sets the jerk limits, mm/sec
M205 S0 T0 ; sets the minimum extruding and travel feed rate, mm/sec
M107
M862.3 P "MK3S" ; printer model check
M862.1 P0.4 ; nozzle diameter check
M115 U3.9.1 ; tell printer latest fw version
G90 ; use absolute coordinates
M83 ; extruder relative mode
M104 S215 ; set extruder temp
M140 S60 ; set bed temp
M190 S60 ; wait for bed temp
M109 S215 ; wait for extruder temp
G28 W ; home all without mesh bed level
G80 ; mesh bed leveling
G1 Y-3.0 F1000.0 ; go outside print area
G92 E0.0
G1 X60.0 E9.0 F1000.0 ; intro line
M73 Q0 S61
M73 P0 R61
G1 X100.0 E12.5 F1000.0 ; intro line
G92 E0.0
M221 S95

; Don't change E values below. Excessive value can damage the printer.
M907 E430 ; set extruder motor current
G21 ; set units to millimeters
G90 ; use absolute coordinates
M83 ; use relative distances for extrusion
M900 K0.05 ; Filament gcode LA 1.5
M900 K30 ; Filament gcode LA 1.0
;BEFORE_LAYER_CHANGE
G92 E0.0
;0.2


G1 E-0.80000 F2100.00000
G1 Z0.600 F10800.000
;AFTER_LAYER_CHANGE
;0.2
G1 X94.040 Y76.165
G1 Z0.200
G1 E0.80000 F2100.00000
M204 S1000
G1 F1200.000
G1 X94.875 Y75.996 E0.02673
G1 X126.433 Y75.966 E0.98947
G1 X127.207 Y76.097 E0.02461
G1 X148.371 Y83.551 E0.70353
G1 X149.113 Y83.999 E0.02720
G1 X149.646 Y84.684 E0.02720
G1 X149.855 Y85.259 E0.01917
G1 X162.213 Y141.127 E1.79407
G1 X162.605 Y142.974 E0.05918
G1 X162.885 Y144.829 E0.05884
G1 X163.069 Y146.835 E0.06314
G1 X163.127 Y148.861 E0.06354
G1 X163.070 Y150.739 E0.05892
G1 X162.895 Y152.680 E0.06111
G1 X162.605 Y154.604 E0.06099
G1 X162.214 Y156.447 E0.05908
G1 X161.659 Y158.459 E0.06545
G1 X161.050 Y160.237 E0.05892
G1 X160.311 Y162.041 E0.06111
G1 X159.467 Y163.794 E0.06099
G1 X158.550 Y165.440 E0.05908
G1 X157.429 Y167.195 E0.06529
G1 X156.321 Y168.719 E0.05908
G1 X155.083 Y170.224 E0.06111
G1 X153.760 Y171.650 E0.06099
G1 X152.399 Y172.953 E0.05908
G1 X150.806 Y174.303 E0.06545
G1 X149.302 Y175.429 E0.05892
G1 X147.675 Y176.503 E0.06111
G1 X145.990 Y177.475 E0.06099
G1 X144.309 Y178.318 E0.05896
G1 X142.391 Y179.138 E0.06541
G1 X140.617 Y179.773 E0.05908
G1 X138.749 Y180.318 E0.06099
G1 X136.849 Y180.752 E0.06111
G1 X134.994 Y181.061 E0.05896
G1 X132.954 Y181.278 E0.06433
G1 X131.033 Y181.363 E0.06028
G1 X129.018 Y181.330 E0.06318
G1 X126.627 Y181.119 E0.07526
G1 X123.371 Y180.565 E0.10356
G1 X121.418 Y180.060 E0.06326
G1 X119.564 Y179.458 E0.06111
G1 X117.746 Y178.745 E0.06123
G1 X115.978 Y177.925 E0.06111
G1 X114.261 Y177.001 E0.06111
G1 X112.546 Y175.937 E0.06330
G1 X111.010 Y174.855 E0.05892
G1 X109.542 Y173.685 E0.05884
G1 X108.087 Y172.382 E0.06123
G1 X106.672 Y170.949 E0.06314
G1 X105.390 Y169.482 E0.06111
G1 X104.195 Y167.937 E0.06123
G1 X103.073 Y166.288 E0.06255
G1 X102.099 Y164.656 E0.05956
G1 X101.232 Y162.988 E0.05896
G1 X100.408 Y161.146 E0.06326
G1 X99.700 Y159.251 E0.06342
G1 X99.148 Y157.455 E0.05892
G1 X98.702 Y155.632 E0.05884
G1 X89.347 Y110.026 E1.45971
G1 X89.359 Y89.656 E0.63869
G1 X92.648 Y77.683 E0.38932
G1 X92.910 Y77.109 E0.01977
G1 X93.315 Y76.622 E0.01989
G1 X93.989 Y76.197 E0.02496
G1 F8640.000
G1 X94.875 Y75.996 E-0.20984
G1 X97.258 Y75.993 E-0.55016
G1 E-0.04000 F2100.00000
G1 Z0.800 F10800.000
G1 X117.394 Y122.484
G1 Z0.200
G1 E0.80000 F2100.00000
G1 F1200.000
G1 X118.991 Y121.744 E0.05518
G1 X120.629 Y121.101 E0.05518
G1 X122.303 Y120.557 E0.05518
G1 X124.006 Y120.114 E0.05518
G1 X125.733 Y119.774 E0.05518
G1 X127.477 Y119.538 E0.05518
G1 X129.231 Y119.407 E0.05515
G1 X131.074 Y119.384 E0.05782
G1 X132.749 Y119.459 E0.05256
G1 X134.499 Y119.643 E0.05518
G1 X136.235 Y119.931 E0.05518
G1 X137.951 Y120.323 E0.05518
G1 X139.640 Y120.816 E0.05518
G1 X141.297 Y121.410 E0.05518
G1 X142.915 Y122.102 E0.05518
G1 X144.489 Y122.889 E0.05518
G1 X146.013 Y123.769 E0.05518
G1 X147.481 Y124.738 E0.05518
G1 X148.889 Y125.793 E0.05515
G1 X150.292 Y126.989 E0.05782
G1 X151.504 Y128.148 E0.05256
G1 X152.701 Y129.438 E0.05518
G1 X153.818 Y130.797 E0.05518
G1 X154.853 Y132.221 E0.05518
G1 X155.800 Y133.704 E0.05518
G1 X156.657 Y135.241 E0.05518
G1 X157.421 Y136.826 E0.05518
G1 X158.088 Y138.455 E0.05518
G1 X158.657 Y140.120 E0.05518
G1 X159.125 Y141.816 E0.05518
G1 X159.491 Y143.538 E0.05518
G1 X159.753 Y145.278 E0.05518
G1 X159.911 Y147.030 E0.05518
G1 X159.964 Y148.789 E0.05518
G1 X159.911 Y150.548 E0.05518
G1 X159.753 Y152.301 E0.05518
G1 X159.491 Y154.041 E0.05518
G1 X159.125 Y155.763 E0.05518
G1 X158.657 Y157.459 E0.05518
G1 X158.088 Y159.124 E0.05515
G1 X157.384 Y160.828 E0.05782
G1 X156.657 Y162.338 E0.05256
G1 X155.800 Y163.875 E0.05518
G1 X154.853 Y165.358 E0.05518
G1 X153.818 Y166.782 E0.05518
G1 X152.701 Y168.141 E0.05518
G1 X151.504 Y169.431 E0.05518
G1 X150.232 Y170.647 E0.05518
G1 X148.889 Y171.785 E0.05518
G1 X147.481 Y172.841 E0.05518
G1 X146.013 Y173.810 E0.05518
G1 X144.489 Y174.690 E0.05518
G1 X142.915 Y175.477 E0.05518
G1 X141.297 Y176.169 E0.05518
G1 X139.641 Y176.762 E0.05515
G1 X137.869 Y177.275 E0.05782
G1 X136.235 Y177.648 E0.05256
G1 X134.499 Y177.936 E0.05518
G1 X132.749 Y178.120 E0.05518
G1 X130.991 Y178.199 E0.05518
G1 X129.231 Y178.172 E0.05518
G1 X127.477 Y178.041 E0.05518
G1 X125.733 Y177.805 E0.05518
G1 X124.006 Y177.465 E0.05518
G1 X122.303 Y177.022 E0.05518
G1 X120.629 Y176.478 E0.05518
G1 X118.991 Y175.835 E0.05518
G1 X117.394 Y175.095 E0.05518
G1 X115.845 Y174.262 E0.05518
G1 X114.348 Y173.336 E0.05518
G1 X112.909 Y172.323 E0.05518
G1 X111.533 Y171.226 E0.05518
G1 X110.225 Y170.049 E0.05518
G1 X108.990 Y168.795 E0.05518
G1 X107.832 Y167.470 E0.05518
G1 X106.756 Y166.078 E0.05518
G1 X105.764 Y164.624 E0.05518
G1 X104.862 Y163.113 E0.05518
G1 X104.051 Y161.551 E0.05518
G1 X103.335 Y159.943 E0.05518
G1 X102.717 Y158.296 E0.05518
G1 X102.198 Y156.614 E0.05518
G1 X101.781 Y154.905 E0.05518
G1 X101.467 Y153.173 E0.05518
G1 X101.257 Y151.426 E0.05518
G1 X101.152 Y149.669 E0.05518
G1 X101.152 Y147.910 E0.05518
G1 X101.257 Y146.153 E0.05518
G1 X101.467 Y144.406 E0.05518
G1 X101.781 Y142.674 E0.05518
G1 X102.198 Y140.965 E0.05518
G1 X102.717 Y139.283 E0.05518
G1 X103.335 Y137.635 E0.05518
G1 X104.051 Y136.028 E0.05518
G1 X104.862 Y134.466 E0.05518
G1 X105.764 Y132.955 E0.05518
G1 X106.755 Y131.502 E0.05515
G1 X107.887 Y130.046 E0.05782
G1 X108.990 Y128.784 E0.05256
G1 X110.225 Y127.530 E0.05518
G1 X111.533 Y126.353 E0.05518
G1 X112.908 Y125.256 E0.05515
G1 X114.419 Y124.199 E0.05782
G1 X115.845 Y123.317 E0.05256
G1 X117.342 Y122.512 E0.05330
G1 X117.163 Y122.180 F10800.000
G1 F1200.000
G1 X118.843 Y121.397 E0.05812
G1 X120.502 Y120.746 E0.05588
G1 X122.197 Y120.195 E0.05588
G1 X123.922 Y119.747 E0.05588
G1 X125.671 Y119.402 E0.05588
G1 X127.437 Y119.163 E0.05588
G1 X129.214 Y119.030 E0.05588
G1 X131.081 Y119.007 E0.05852
G1 X132.777 Y119.083 E0.05325
G1 X134.550 Y119.269 E0.05588
G1 X136.308 Y119.561 E0.05588
G1 X138.046 Y119.958 E0.05588
G1 X139.757 Y120.458 E0.05588
G1 X141.434 Y121.059 E0.05588
G1 X143.073 Y121.759 E0.05588
G1 X144.667 Y122.557 E0.05588
G1 X146.211 Y123.448 E0.05588
G1 X147.699 Y124.430 E0.05588
G1 X149.124 Y125.499 E0.05588
G1 X150.545 Y126.709 E0.05852
G1 X151.773 Y127.883 E0.05325
G1 X152.985 Y129.190 E0.05588
G1 X154.117 Y130.566 E0.05588
G1 X155.164 Y132.008 E0.05588
G1 X156.124 Y133.510 E0.05588
G1 X156.992 Y135.067 E0.05588
G1 X157.765 Y136.673 E0.05588
G1 X158.441 Y138.322 E0.05588
G1 X159.017 Y140.009 E0.05588
G1 X159.491 Y141.727 E0.05588
G1 X159.862 Y143.470 E0.05588
G1 X160.128 Y145.233 E0.05588
G1 X160.287 Y147.008 E0.05588
G1 X160.341 Y148.789 E0.05588
G1 X160.287 Y150.571 E0.05588
G1 X160.128 Y152.346 E0.05588
G1 X159.862 Y154.109 E0.05588
G1 X159.491 Y155.852 E0.05588
G1 X159.017 Y157.570 E0.05588
G1 X158.441 Y159.257 E0.05588
G1 X157.729 Y160.982 E0.05852
G1 X156.992 Y162.512 E0.05325
G1 X156.124 Y164.069 E0.05588
G1 X155.164 Y165.571 E0.05588
G1 X154.117 Y167.013 E0.05588
G1 X152.985 Y168.389 E0.05588
G1 X151.773 Y169.696 E0.05588
G1 X150.484 Y170.928 E0.05588
G1 X149.125 Y172.080 E0.05588
G1 X147.699 Y173.149 E0.05588
G1 X146.211 Y174.131 E0.05588
G1 X144.667 Y175.022 E0.05588
G1 X143.073 Y175.820 E0.05588
G1 X141.434 Y176.520 E0.05588
G1 X139.757 Y177.121 E0.05588
G1 X137.964 Y177.640 E0.05852
G1 X136.308 Y178.018 E0.05325
G1 X134.550 Y178.310 E0.05588
G1 X132.777 Y178.496 E0.05588
G1 X130.997 Y178.576 E0.05588
G1 X129.214 Y178.549 E0.05588
G1 X127.437 Y178.416 E0.05588
G1 X125.671 Y178.177 E0.05588
G1 X123.922 Y177.832 E0.05588
G1 X122.197 Y177.384 E0.05588
G1 X120.502 Y176.833 E0.05588
G1 X118.843 Y176.182 E0.05588
G1 X117.226 Y175.433 E0.05588
G1 X115.656 Y174.588 E0.05588
G1 X114.140 Y173.651 E0.05588
G1 X112.682 Y172.625 E0.05588
G1 X111.289 Y171.514 E0.05588
G1 X109.964 Y170.321 E0.05588
G1 X108.713 Y169.052 E0.05588
G1 X107.541 Y167.709 E0.05588
G1 X106.451 Y166.299 E0.05588
G1 X105.446 Y164.827 E0.05588
G1 X104.532 Y163.297 E0.05588
G1 X103.711 Y161.715 E0.05588
G1 X102.986 Y160.087 E0.05588
G1 X102.360 Y158.418 E0.05588
G1 X101.835 Y156.715 E0.05588
G1 X101.412 Y154.983 E0.05588
G1 X101.094 Y153.229 E0.05588
G1 X100.881 Y151.460 E0.05588
G1 X100.774 Y149.681 E0.05588
G1 X100.774 Y147.898 E0.05588
G1 X100.881 Y146.119 E0.05588
G1 X101.094 Y144.350 E0.05588
G1 X101.412 Y142.596 E0.05588
G1 X101.835 Y140.864 E0.05588
G1 X102.360 Y139.161 E0.05588
G1 X102.986 Y137.492 E0.05588
G1 X103.711 Y135.864 E0.05588
G1 X104.532 Y134.282 E0.05588
G1 X105.446 Y132.752 E0.05588
G1 X106.450 Y131.280 E0.05588
G1 X107.596 Y129.806 E0.05852
G1 X108.713 Y128.527 E0.05325
G1 X109.964 Y127.258 E0.05588
G1 X111.289 Y126.065 E0.05588
G1 X112.682 Y124.954 E0.05588
G1 X114.211 Y123.883 E0.05852
G1 X115.656 Y122.991 E0.05325
G1 X117.110 Y122.208 E0.05177
G1 X117.497 Y122.400 F10800.000
G1 F8640.000
G1 X118.843 Y121.397 E-0.44181
G1 X120.126 Y120.893 E-0.31819
G1 E-0.04000 F2100.00000
G1 Z0.800 F10800.000
G1 X107.730 Y167.153
G1 Z0.200
G1 E0.80000 F2100.00000
G1 F1200.000
G1 X110.428 Y169.851 E0.12000
G1 X111.716 Y171.010 E0.05449
G1 X113.078 Y172.097 E0.05482
G1 X113.520 Y172.408 E0.01698
G1 X106.901 Y165.789 E0.29439
G1 X106.003 Y164.471 E0.05016
G1 X105.831 Y164.184 E0.01052
G1 X115.141 Y173.494 E0.41411
G1 X115.986 Y174.016 E0.03123
G1 X116.446 Y174.264 E0.01641
G1 X105.057 Y162.875 E0.50656
G1 X104.480 Y161.763 E0.03941
G1 X117.592 Y174.875 E0.58323
G1 X118.589 Y175.337 E0.03455
G1 X104.006 Y160.754 E0.64863
G1 X103.582 Y159.795 E0.03298
G1 X119.529 Y175.743 E0.70932
G1 X120.410 Y176.088 E0.02975
G1 X103.260 Y158.939 E0.76278
G1 X102.951 Y158.094 E0.02829
G1 X121.234 Y176.377 E0.81320
G1 X122.026 Y176.635 E0.02620
G1 X102.712 Y157.321 E0.85905
G1 X102.474 Y156.547 E0.02546
G1 X122.780 Y176.854 E0.90321
G1 X123.503 Y177.042 E0.02349
G1 X102.300 Y155.839 E0.94307
G1 X102.128 Y155.131 E0.02291
G1 X124.213 Y177.217 E0.98235
G1 X124.880 Y177.348 E0.02135
G1 X101.987 Y154.456 E1.01823
G1 X101.869 Y153.803 E0.02089
G1 X125.546 Y177.480 E1.05313
G1 X126.181 Y177.580 E0.02023
G1 X101.750 Y153.149 E1.08667
G1 X101.676 Y152.540 E0.01931
G1 X126.800 Y177.664 E1.11750
M73 Q1 S60
G1 X127.418 Y177.748 E0.01964
G1 X101.602 Y151.932 E1.14827
M73 P1 R60
G1 X101.534 Y151.329 E0.01909
G1 X128.002 Y177.797 E1.17728
G1 X128.581 Y177.840 E0.01824
G1 X101.500 Y150.760 E1.20451
G1 X101.466 Y150.191 E0.01793
G1 X129.159 Y177.883 E1.23175
G1 X129.707 Y177.897 E0.01725
G1 X101.434 Y149.624 E1.25755
G1 X101.434 Y149.089 E0.01682
G1 X130.250 Y177.905 E1.28170
G1 X130.793 Y177.913 E0.01708
G1 X101.434 Y148.554 E1.30585
G1 X101.434 Y148.019 E0.01682
G1 X131.316 Y177.901 E1.32912
G1 X131.828 Y177.878 E0.01612
G1 X101.459 Y147.509 E1.35080
G1 X101.489 Y147.004 E0.01590
G1 X132.340 Y177.855 E1.37222
G1 X132.845 Y177.825 E0.01592
G1 X101.519 Y146.499 E1.39335
G1 X101.559 Y146.005 E0.01561
G1 X133.329 Y177.774 E1.41309
G1 X133.813 Y177.724 E0.01531
G1 X101.617 Y145.527 E1.43207
G1 X101.674 Y145.050 E0.01513
G1 X134.297 Y177.673 E1.45104
G1 X134.765 Y177.605 E0.01485
G1 X101.732 Y144.572 E1.46927
G1 X101.807 Y144.113 E0.01464
G1 X135.223 Y177.529 E1.48631
G1 X135.682 Y177.453 E0.01463
G1 X101.890 Y143.660 E1.50306
G1 X101.972 Y143.207 E0.01447
G1 X136.141 Y177.377 E1.51981
G1 X136.579 Y177.279 E0.01410
G1 X102.054 Y142.755 E1.53561
G1 X102.158 Y142.324 E0.01395
G1 X137.014 Y177.180 E1.55037
G1 X137.450 Y177.080 E0.01405
G1 X102.263 Y141.894 E1.56507
G1 X102.368 Y141.464 E0.01392
G1 X137.881 Y176.977 E1.57959
G1 X138.296 Y176.857 E0.01358
G1 X102.473 Y141.034 E1.59337
G1 X102.599 Y140.625 E0.01346
G1 X138.711 Y176.737 E1.60621
G1 X139.126 Y176.617 E0.01358
G1 X102.725 Y140.216 E1.61906
G1 X102.851 Y139.807 E0.01346
G1 X139.541 Y176.497 E1.63190
G1 X139.935 Y176.356 E0.01317
G1 X102.977 Y139.399 E1.64384
M73 Q3 S59
M73 P3 R59
G1 X103.122 Y139.008 E0.01309
G1 X140.329 Y176.215 E1.65492
G1 X140.723 Y176.074 E0.01316
G1 X103.268 Y138.620 E1.66594
G1 X103.414 Y138.231 E0.01307
G1 X141.117 Y175.933 E1.67696
G1 X141.495 Y175.777 E0.01288
G1 X103.560 Y137.842 E1.68730
G1 X103.720 Y137.467 E0.01282
G1 X141.870 Y175.616 E1.69685
G1 X142.244 Y175.456 E0.01282
G1 X103.885 Y137.097 E1.70619
G1 X104.050 Y136.726 E0.01274
G1 X142.619 Y175.296 E1.71553
G1 X142.984 Y175.126 E0.01266
G1 X104.214 Y136.356 E1.72444
G1 X104.387 Y135.994 E0.01262
G1 X143.341 Y174.948 E1.73262
G1 X143.698 Y174.770 E0.01254
G1 X104.570 Y135.642 E1.74035
G1 X104.753 Y135.290 E0.01248
G1 X144.054 Y174.591 E1.74808
G1 X144.408 Y174.410 E0.01250
G1 X104.936 Y134.938 E1.75569
G1 X105.119 Y134.586 E0.01247
G1 X144.747 Y174.214 E1.76261
G1 X145.086 Y174.019 E0.01232
G1 X105.319 Y134.252 E1.76879
G1 X105.519 Y133.917 E0.01227
G1 X145.425 Y173.823 E1.77498
G1 X145.764 Y173.627 E0.01232
G1 X105.719 Y133.582 E1.78116
G1 X105.919 Y133.247 E0.01227
G1 X146.092 Y173.419 E1.78682
G1 X146.414 Y173.207 E0.01214
G1 X106.129 Y132.922 E1.79181
G1 X106.346 Y132.604 E0.01211
G1 X146.736 Y172.994 E1.79650
G1 X147.058 Y172.781 E0.01214
G1 X106.563 Y132.286 E1.80119
G1 X106.780 Y131.968 E0.01211
G1 X147.377 Y172.565 E1.80573
G1 X147.683 Y172.336 E0.01202
G1 X106.998 Y131.651 E1.80964
M73 Q5 S58
M73 P5 R57
G1 X107.232 Y131.350 E0.01199
G1 X147.989 Y172.107 E1.81283
G1 X148.295 Y171.878 E0.01202
G1 X107.466 Y131.049 E1.81602
G1 X107.700 Y130.748 E0.01199
G1 X148.600 Y171.648 E1.81921
G1 X148.713 Y171.564 E0.00443
G1 X148.896 Y171.409 E0.00754
G1 X107.934 Y130.447 E1.82195
G1 X108.172 Y130.150 E0.01197
G1 X149.185 Y171.164 E1.82424
G1 X149.475 Y170.918 E0.01194
G1 X108.421 Y129.865 E1.82602
G1 X108.671 Y129.579 E0.01192
G1 X149.764 Y170.673 E1.82780
G1 X150.053 Y170.427 E0.01193
G1 X108.920 Y129.294 E1.82956
G1 X109.170 Y129.008 E0.01192
G1 X150.327 Y170.165 E1.83063
G1 X150.600 Y169.904 E0.01190
G1 X109.433 Y128.737 E1.83106
G1 X109.699 Y128.467 E0.01190
G1 X150.874 Y169.642 E1.83142
G1 X151.147 Y169.381 E0.01190
G1 X109.964 Y128.198 E1.83177
G1 X110.230 Y127.929 E0.01190
G1 X151.414 Y169.113 E1.83182
G1 X151.671 Y168.835 E0.01190
G1 X110.500 Y127.664 E1.83127
G1 X110.781 Y127.410 E0.01191
G1 X151.929 Y168.558 E1.83020
G1 X152.186 Y168.280 E0.01190
G1 X111.063 Y127.157 E1.82913
G1 X111.344 Y126.903 E0.01191
G1 X152.443 Y168.003 E1.82806
G1 X152.688 Y167.712 E0.01194
G1 X111.625 Y126.650 E1.82640
G1 X111.918 Y126.407 E0.01195
G1 X152.929 Y167.418 E1.82413
G1 X153.170 Y167.125 E0.01195
G1 X112.215 Y126.170 E1.82163
G1 X112.513 Y125.933 E0.01197
G1 X153.412 Y166.831 E1.81913
M73 Q6 S57
M73 P6 R56
G1 X153.649 Y166.534 E0.01197
G1 X112.811 Y125.695 E1.81645
G1 X113.110 Y125.460 E0.01198
G1 X153.874 Y166.224 E1.81315
G1 X154.099 Y165.914 E0.01204
