; generated by PrusaSlicer 2.2.0+ on 2020-11-10 at 17:48:06 UTC

; 

; external perimeters extrusion width = 0.45mm
; perimeters extrusion width = 0.45mm
; infill extrusion width = 0.45mm
; solid infill extrusion width = 0.45mm
; top infill extrusion width = 0.40mm
; support material extrusion width = 0.35mm
; first layer extrusion width = 0.42mm

M73 P0 R33
M73 Q0 S33
M201 X1000 Y1000 Z200 E5000 ; sets maximum accelerations, mm/sec^2
M203 X200 Y200 Z12 E120 ; sets maximum feedrates, mm/sec
M204 P1250 R1250 T1250 ; sets acceleration (P, T) and retract acceleration (R), mm/sec^2
M205 X8.00 Y8.00 Z0.40 E4.50 ; sets the jerk limits, mm/sec
M205 S0 T0 ; sets the minimum extruding and travel feed rate, mm/sec
M107
M862.3 P "MK3S" ; printer model check
M862.1 P0.4 ; nozzle diameter check
M115 U3.9.1 ; tell printer latest fw version
G90 ; use absolute coordinates
M83 ; extruder relative mode
M104 S215 ; set extruder temp
M140 S60 ; set bed temp
M190 S60 ; wait for bed temp
M109 S215 ; wait for extruder temp
G28 W ; home all without mesh bed level
G80 ; mesh bed leveling
G1 Y-3.0 F1000.0 ; go outside print area
G92 E0.0
G1 X60.0 E9.0 F1000.0 ; intro line
M73 Q0 S33
M73 P0 R33
G1 X100.0 E12.5 F1000.0 ; intro line
G92 E0.0
M221 S95

; Don't change E values below. Excessive value can damage the printer.
M907 E430 ; set extruder motor current
G21 ; set units to millimeters
G90 ; use absolute coordinates
M83 ; use relative distances for extrusion
M900 K0.05 ; Filament gcode LA 1.5
M900 K30 ; Filament gcode LA 1.0
;BEFORE_LAYER_CHANGE
G92 E0.0
;0.2


G1 E-0.80000 F2100.00000
G1 Z0.600 F10800.000
;AFTER_LAYER_CHANGE
;0.2
G1 X50.430 Y78.338
G1 Z0.200
G1 E0.80000 F2100.00000
M204 S1000
G1 F1200.000
G1 X52.084 Y77.316 E0.06099
G1 X53.743 Y76.422 E0.05908
G1 X55.637 Y75.544 E0.06545
G1 X57.387 Y74.859 E0.05892
G1 X59.241 Y74.257 E0.06111
G1 X61.123 Y73.767 E0.06099
G1 X62.968 Y73.403 E0.05896
G1 X65.036 Y73.122 E0.06541
G1 X66.915 Y72.983 E0.05908
G1 X68.829 Y72.953 E0.06004
G1 X70.880 Y73.047 E0.06438
G1 X72.749 Y73.245 E0.05892
G1 X74.672 Y73.564 E0.06111
G1 X76.569 Y73.997 E0.06099
G1 X78.378 Y74.524 E0.05908
G1 X80.343 Y75.229 E0.06545
G1 X82.070 Y75.968 E0.05892
G1 X83.813 Y76.840 E0.06111
G1 X85.498 Y77.813 E0.06099
G1 X87.071 Y78.850 E0.05908
G1 X88.738 Y80.099 E0.06529
G1 X90.174 Y81.318 E0.05908
G1 X91.580 Y82.663 E0.06099
G1 X92.954 Y84.148 E0.06342
G1 X94.147 Y85.600 E0.05892
G1 X95.292 Y87.177 E0.06111
G1 X96.340 Y88.816 E0.06099
G1 X97.258 Y90.461 E0.05908
G1 X98.164 Y92.342 E0.06545
G1 X98.875 Y94.081 E0.05892
G1 X99.505 Y95.926 E0.06111
G1 X100.023 Y97.801 E0.06099
G1 X100.416 Y99.644 E0.05908
G1 X100.726 Y101.703 E0.06529
G1 X100.894 Y103.580 E0.05908
G1 X100.952 Y105.528 E0.06111
G1 X100.894 Y107.473 E0.06099
G1 X100.726 Y109.350 E0.05908
G1 X100.415 Y111.414 E0.06545
G1 X100.023 Y113.252 E0.05892
G1 X99.504 Y115.130 E0.06111
G1 X98.876 Y116.971 E0.06099
G1 X98.164 Y118.712 E0.05896
G1 X97.259 Y120.592 E0.06541
G1 X96.340 Y122.237 E0.05908
G1 X95.293 Y123.876 E0.06099
G1 X94.102 Y125.511 E0.06342
G1 X92.907 Y126.962 E0.05892
G1 X91.581 Y128.390 E0.06111
G1 X90.175 Y129.735 E0.06099
G1 X88.739 Y130.954 E0.05908
G1 X87.068 Y132.206 E0.06545
G1 X85.499 Y133.240 E0.05892
G1 X83.811 Y134.215 E0.06111
G1 X82.071 Y135.085 E0.06099
G1 X80.343 Y135.825 E0.05896
G1 X78.379 Y136.529 E0.06541
G1 X76.570 Y137.057 E0.05908
G1 X74.673 Y137.489 E0.06099
G1 X72.751 Y137.809 E0.06111
G1 X70.880 Y138.007 E0.05896
G1 X68.827 Y138.101 E0.06445
G1 X66.916 Y138.071 E0.05992
G1 X65.037 Y137.932 E0.05908
G1 X62.968 Y137.651 E0.06545
G1 X61.125 Y137.287 E0.05892
G1 X59.238 Y136.797 E0.06111
G1 X57.388 Y136.195 E0.06099
G1 X55.634 Y135.508 E0.05908
G1 X53.744 Y134.633 E0.06529
G1 X52.085 Y133.739 E0.05908
G1 X50.427 Y132.714 E0.06111
G1 X48.837 Y131.595 E0.06099
G1 X47.363 Y130.421 E0.05908
G1 X45.812 Y129.024 E0.06545
G1 X44.494 Y127.684 E0.05892
G1 X43.211 Y126.216 E0.06111
G1 X42.021 Y124.677 E0.06099
G1 X40.959 Y123.121 E0.05908
G1 X39.891 Y121.334 E0.06529
G1 X39.024 Y119.661 E0.05908
G1 X38.231 Y117.880 E0.06111
G1 X37.547 Y116.059 E0.06099
G1 X36.991 Y114.258 E0.05908
G1 X36.496 Y112.230 E0.06545
G1 X36.162 Y110.381 E0.05892
G1 X35.929 Y108.446 E0.06111
G1 X35.813 Y106.504 E0.06099
G1 X35.812 Y104.624 E0.05896
G1 X35.936 Y102.541 E0.06541
G1 X36.162 Y100.670 E0.05908
G1 X36.510 Y98.753 E0.06111
G1 X36.971 Y96.863 E0.06099
G1 X37.526 Y95.062 E0.05908
G1 X38.257 Y93.112 E0.06529
G1 X39.025 Y91.391 E0.05908
G1 X39.923 Y89.661 E0.06111
G1 X40.920 Y87.991 E0.06099
G1 X41.981 Y86.434 E0.05908
G1 X43.255 Y84.786 E0.06529
G1 X44.495 Y83.368 E0.05908
G1 X45.860 Y81.982 E0.06099
G1 X47.366 Y80.631 E0.06342
G1 X48.836 Y79.460 E0.05892
G1 X50.380 Y78.373 E0.05923
G1 F8640.000
G1 X52.084 Y77.316 E-0.46301
G1 X53.217 Y76.706 E-0.29699
G1 E-0.04000 F2100.00000
G1 Z0.800 F10800.000
G1 X72.121 Y110.532
G1 Z0.200
G1 E0.80000 F2100.00000
G1 F1200.000
G1 X72.931 Y109.995 E0.03045
G1 X73.800 Y109.562 E0.03045
G1 X74.716 Y109.240 E0.03045
G1 X75.665 Y109.032 E0.03045
G1 X76.475 Y108.957 E0.02550
G1 X76.632 Y108.942 E0.00495
G1 X77.603 Y108.972 E0.03045
G1 X78.563 Y109.121 E0.03045
G1 X79.497 Y109.387 E0.03045
G1 X80.391 Y109.765 E0.03045
G1 X81.232 Y110.251 E0.03045
G1 X82.008 Y110.836 E0.03045
G1 X82.705 Y111.513 E0.03045
G1 X83.215 Y112.146 E0.02550
G1 X83.314 Y112.269 E0.00495
G1 X83.825 Y113.095 E0.03045
G1 X84.231 Y113.977 E0.03045
G1 X84.525 Y114.903 E0.03045
G1 X84.704 Y115.858 E0.03045
G1 X84.764 Y116.827 E0.03045
G1 X84.704 Y117.796 E0.03045
G1 X84.525 Y118.751 E0.03045
G1 X84.231 Y119.677 E0.03045
G1 X83.825 Y120.559 E0.03045
G1 X83.314 Y121.385 E0.03045
G1 X82.705 Y122.141 E0.03045
G1 X82.008 Y122.818 E0.03045
G1 X81.232 Y123.403 E0.03045
G1 X80.391 Y123.889 E0.03045
G1 X79.497 Y124.267 E0.03045
G1 X78.563 Y124.533 E0.03045
G1 X77.603 Y124.682 E0.03045
G1 X76.632 Y124.712 E0.03045
G1 X75.665 Y124.622 E0.03045
G1 X74.716 Y124.414 E0.03045
G1 X73.800 Y124.092 E0.03045
G1 X72.931 Y123.659 E0.03045
G1 X72.121 Y123.122 E0.03045
G1 X71.384 Y122.490 E0.03045
G1 X70.729 Y121.773 E0.03045
G1 X70.168 Y120.980 E0.03045
G1 X69.709 Y120.124 E0.03045
G1 X69.358 Y119.218 E0.03045
G1 X69.121 Y118.277 E0.03045
G1 X69.001 Y117.313 E0.03045
G1 X69.001 Y116.341 E0.03045
G1 X69.121 Y115.377 E0.03045
G1 X69.358 Y114.436 E0.03045
G1 X69.709 Y113.530 E0.03045
G1 X70.168 Y112.674 E0.03045
G1 X70.729 Y111.881 E0.03045
G1 X71.384 Y111.164 E0.03045
G1 X72.076 Y110.571 E0.02857
G1 X72.321 Y110.857 F10800.000
G1 F1200.000
G1 X73.120 Y110.322 E0.03014
G1 X73.947 Y109.910 E0.02899
G1 X74.820 Y109.603 E0.02899
G1 X75.723 Y109.405 E0.02899
G1 X76.510 Y109.332 E0.02478
G1 X76.644 Y109.320 E0.00422
G1 X77.568 Y109.348 E0.02899
G1 X78.482 Y109.490 E0.02899
G1 X79.371 Y109.743 E0.02899
G1 X80.223 Y110.104 E0.02899
G1 X81.024 Y110.566 E0.02899
G1 X81.762 Y111.123 E0.02899
G1 X82.426 Y111.767 E0.02899
G1 X83.005 Y112.487 E0.02899
G1 X83.492 Y113.274 E0.02899
G1 X83.879 Y114.114 E0.02899
G1 X84.159 Y114.995 E0.02899
G1 X84.329 Y115.904 E0.02899
G1 X84.386 Y116.827 E0.02899
G1 X84.329 Y117.750 E0.02899
G1 X84.159 Y118.659 E0.02899
G1 X83.879 Y119.540 E0.02899
G1 X83.492 Y120.380 E0.02899
G1 X83.005 Y121.167 E0.02899
G1 X82.426 Y121.887 E0.02899
G1 X81.762 Y122.531 E0.02899
G1 X81.024 Y123.088 E0.02899
G1 X80.223 Y123.550 E0.02899
G1 X79.371 Y123.911 E0.02899
G1 X78.482 Y124.164 E0.02899
G1 X77.568 Y124.306 E0.02899
G1 X76.644 Y124.334 E0.02899
G1 X75.723 Y124.249 E0.02899
G1 X74.820 Y124.051 E0.02899
G1 X73.947 Y123.744 E0.02899
G1 X73.120 Y123.332 E0.02899
G1 X72.349 Y122.821 E0.02899
G1 X71.647 Y122.219 E0.02899
G1 X71.024 Y121.536 E0.02899
G1 X70.489 Y120.781 E0.02899
G1 X70.052 Y119.966 E0.02899
G1 X69.718 Y119.104 E0.02899
G1 X69.492 Y118.207 E0.02899
G1 X69.379 Y117.289 E0.02899
G1 X69.379 Y116.365 E0.02899
G1 X69.492 Y115.447 E0.02899
G1 X69.718 Y114.550 E0.02899
G1 X70.052 Y113.688 E0.02899
G1 X70.489 Y112.873 E0.02899
G1 X71.024 Y112.118 E0.02899
G1 X71.647 Y111.435 E0.02899
G1 X72.275 Y110.896 E0.02596
G1 X72.270 Y110.460 F10800.000
G1 F8640.000
G1 X73.120 Y110.322 E-0.23571
G1 X73.947 Y109.910 E-0.21353
G1 X74.820 Y109.603 E-0.21353
G1 X75.231 Y109.513 E-0.09724
G1 E-0.04000 F2100.00000
G1 Z0.800 F10800.000
G1 X65.275 Y114.448
G1 Z0.200
G1 E0.80000 F2100.00000
G1 F1200.000
G1 X65.519 Y115.104 E0.02192
G1 X65.683 Y115.783 E0.02192
G1 X65.766 Y116.477 E0.02192
G1 X65.766 Y117.177 E0.02192
G1 X65.683 Y117.871 E0.02192
G1 X65.519 Y118.550 E0.02192
G1 X65.397 Y118.878 E0.01096
G1 X65.275 Y119.206 E0.01096
G1 X64.956 Y119.828 E0.02192
G1 X64.566 Y120.408 E0.02192
G1 X64.109 Y120.937 E0.02192
G1 X63.593 Y121.409 E0.02192
G1 X63.220 Y121.677 E0.01441
G1 X63.025 Y121.817 E0.00751
G1 X62.413 Y122.154 E0.02192
G1 X61.765 Y122.417 E0.02192
G1 X61.091 Y122.601 E0.02192
G1 X60.399 Y122.705 E0.02192
G1 X59.700 Y122.725 E0.02192
G1 X59.004 Y122.663 E0.02192
G1 X58.320 Y122.519 E0.02192
G1 X57.657 Y122.295 E0.02192
G1 X57.026 Y121.995 E0.02192
G1 X56.435 Y121.621 E0.02192
G1 X55.892 Y121.181 E0.02192
G1 X55.405 Y120.679 E0.02192
G1 X54.981 Y120.124 E0.02192
G1 X54.625 Y119.522 E0.02192
G1 X54.343 Y118.882 E0.02192
G1 X54.139 Y118.213 E0.02192
G1 X54.016 Y117.525 E0.02192
G1 X53.974 Y116.827 E0.02192
G1 X54.016 Y116.129 E0.02192
G1 X54.139 Y115.441 E0.02192
G1 X54.343 Y114.772 E0.02192
G1 X54.625 Y114.132 E0.02192
G1 X54.803 Y113.831 E0.01096
G1 X54.981 Y113.530 E0.01096
G1 X55.405 Y112.975 E0.02192
G1 X55.892 Y112.473 E0.02192
G1 X56.249 Y112.184 E0.01441
G1 X56.435 Y112.033 E0.00751
G1 X57.026 Y111.659 E0.02192
G1 X57.657 Y111.359 E0.02192
G1 X58.320 Y111.135 E0.02192
G1 X59.004 Y110.991 E0.02192
G1 X59.700 Y110.929 E0.02192
G1 X60.399 Y110.949 E0.02192
G1 X61.091 Y111.053 E0.02192
G1 X61.765 Y111.237 E0.02192
G1 X62.413 Y111.500 E0.02192
G1 X62.719 Y111.668 E0.01096
G1 X63.025 Y111.837 E0.01096
G1 X63.593 Y112.245 E0.02192
G1 X64.109 Y112.717 E0.02192
G1 X64.566 Y113.246 E0.02192
G1 X64.956 Y113.826 E0.02192
G1 X65.248 Y114.395 E0.02004
G1 X64.912 Y114.567 F10800.000
G1 F1200.000
G1 X65.158 Y115.214 E0.02169
G1 X65.311 Y115.850 E0.02052
G1 X65.389 Y116.500 E0.02052
G1 X65.389 Y117.154 E0.02052
G1 X65.311 Y117.804 E0.02052
G1 X65.158 Y118.440 E0.02052
G1 X64.930 Y119.054 E0.02052
G1 X64.631 Y119.636 E0.02052
G1 X64.265 Y120.179 E0.02052
G1 X63.838 Y120.674 E0.02052
G1 X63.355 Y121.116 E0.02052
G1 X63.000 Y121.371 E0.01371
G1 X62.824 Y121.497 E0.00681
G1 X62.250 Y121.813 E0.02052
G1 X61.644 Y122.059 E0.02052
G1 X61.013 Y122.232 E0.02052
G1 X60.366 Y122.328 E0.02052
G1 X59.711 Y122.348 E0.02052
G1 X59.060 Y122.290 E0.02052
G1 X58.419 Y122.155 E0.02052
G1 X57.799 Y121.945 E0.02052
G1 X57.208 Y121.664 E0.02052
G1 X56.655 Y121.315 E0.02052
G1 X56.147 Y120.902 E0.02052
G1 X55.691 Y120.433 E0.02052
G1 X55.294 Y119.913 E0.02052
G1 X54.961 Y119.349 E0.02052
G1 X54.697 Y118.750 E0.02052
G1 X54.506 Y118.124 E0.02052
G1 X54.391 Y117.480 E0.02052
G1 X54.352 Y116.827 E0.02052
G1 X54.391 Y116.174 E0.02052
G1 X54.506 Y115.530 E0.02052
G1 X54.697 Y114.904 E0.02052
G1 X54.961 Y114.305 E0.02052
G1 X55.128 Y114.023 E0.01026
G1 X55.294 Y113.741 E0.01026
G1 X55.691 Y113.221 E0.02052
G1 X56.147 Y112.752 E0.02052
G1 X56.486 Y112.476 E0.01371
G1 X56.655 Y112.339 E0.00681
G1 X57.208 Y111.990 E0.02052
G1 X57.799 Y111.709 E0.02052
G1 X58.419 Y111.499 E0.02052
G1 X59.060 Y111.364 E0.02052
G1 X59.711 Y111.306 E0.02052
G1 X60.366 Y111.326 E0.02052
G1 X61.013 Y111.422 E0.02052
G1 X61.644 Y111.595 E0.02052
G1 X62.250 Y111.841 E0.02052
G1 X62.537 Y111.999 E0.01026
G1 X62.824 Y112.157 E0.01026
G1 X63.355 Y112.538 E0.02052
G1 X63.838 Y112.980 E0.02052
G1 X64.265 Y113.475 E0.02052
G1 X64.631 Y114.018 E0.02052
G1 X64.885 Y114.514 E0.01746
G1 X65.310 Y114.608 F10800.000
G1 F8640.000
G1 X65.158 Y115.214 E-0.17351
G1 X65.311 Y115.850 E-0.15110
G1 X65.389 Y116.500 E-0.15110
G1 X65.389 Y117.154 E-0.15110
G1 X65.320 Y117.727 E-0.13318
G1 E-0.04000 F2100.00000
G1 Z0.800 F10800.000
G1 X57.666 Y132.907
G1 Z0.200
G1 E0.80000 F2100.00000
G1 F1200.000
G1 X56.815 Y132.573 E0.02867
G1 X55.218 Y131.833 E0.05518
G1 X53.669 Y130.999 E0.05518
G1 X52.172 Y130.074 E0.05518
G1 X50.733 Y129.061 E0.05518
G1 X49.357 Y127.964 E0.05518
G1 X48.049 Y126.786 E0.05518
G1 X46.814 Y125.533 E0.05518
G1 X45.656 Y124.207 E0.05518
G1 X44.580 Y122.815 E0.05518
G1 X43.588 Y121.361 E0.05518
G1 X42.686 Y119.851 E0.05518
G1 X41.875 Y118.289 E0.05518
G1 X41.160 Y116.681 E0.05518
G1 X40.541 Y115.033 E0.05518
G1 X40.022 Y113.352 E0.05518
G1 X39.605 Y111.642 E0.05518
G1 X39.291 Y109.911 E0.05518
G1 X39.081 Y108.164 E0.05518
G1 X38.976 Y106.407 E0.05518
G1 X38.976 Y104.647 E0.05518
G1 X39.081 Y102.890 E0.05518
G1 X39.291 Y101.143 E0.05518
G1 X39.605 Y99.412 E0.05518
G1 X40.022 Y97.702 E0.05518
G1 X40.541 Y96.021 E0.05518
G1 X41.160 Y94.373 E0.05518
G1 X41.875 Y92.765 E0.05518
G1 X42.686 Y91.203 E0.05518
G1 X43.588 Y89.693 E0.05518
G1 X44.579 Y88.239 E0.05515
G1 X45.711 Y86.784 E0.05782
G1 X46.814 Y85.521 E0.05256
G1 X48.049 Y84.268 E0.05518
G1 X49.357 Y83.090 E0.05518
G1 X50.732 Y81.994 E0.05515
G1 X52.243 Y80.936 E0.05782
G1 X53.669 Y80.055 E0.05256
G1 X55.218 Y79.221 E0.05518
G1 X56.815 Y78.481 E0.05518
G1 X58.453 Y77.838 E0.05518
G1 X60.127 Y77.295 E0.05518
G1 X61.830 Y76.852 E0.05518
G1 X63.557 Y76.512 E0.05518
G1 X65.301 Y76.276 E0.05518
G1 X67.055 Y76.144 E0.05515
G1 X68.899 Y76.121 E0.05782
G1 X70.573 Y76.197 E0.05256
G1 X72.323 Y76.381 E0.05518
G1 X74.059 Y76.669 E0.05518
G1 X75.775 Y77.060 E0.05518
G1 X77.464 Y77.554 E0.05518
G1 X79.121 Y78.148 E0.05518
G1 X80.739 Y78.839 E0.05518
G1 X82.313 Y79.626 E0.05518
G1 X83.837 Y80.506 E0.05518
G1 X85.305 Y81.476 E0.05518
G1 X86.713 Y82.531 E0.05515
G1 X88.116 Y83.727 E0.05782
G1 X89.328 Y84.885 E0.05256
G1 X90.525 Y86.175 E0.05518
G1 X91.643 Y87.535 E0.05518
G1 X92.677 Y88.958 E0.05518
G1 X93.624 Y90.441 E0.05518
G1 X94.481 Y91.978 E0.05518
G1 X95.245 Y93.564 E0.05518
G1 X95.912 Y95.192 E0.05518
G1 X96.481 Y96.857 E0.05518
G1 X96.949 Y98.554 E0.05518
G1 X97.315 Y100.275 E0.05518
G1 X97.577 Y102.015 E0.05518
G1 X97.735 Y103.768 E0.05518
G1 X97.788 Y105.527 E0.05518
G1 X97.735 Y107.286 E0.05518
G1 X97.577 Y109.039 E0.05518
G1 X97.315 Y110.779 E0.05518
G1 X96.949 Y112.500 E0.05518
G1 X96.481 Y114.197 E0.05518
G1 X95.912 Y115.861 E0.05515
G1 X95.209 Y117.565 E0.05782
G1 X94.481 Y119.076 E0.05256
G1 X93.624 Y120.613 E0.05518
G1 X92.677 Y122.096 E0.05518
G1 X91.643 Y123.519 E0.05518
G1 X90.525 Y124.879 E0.05518
G1 X89.328 Y126.169 E0.05518
G1 X88.056 Y127.385 E0.05518
G1 X86.714 Y128.523 E0.05518
G1 X85.305 Y129.578 E0.05518
G1 X83.837 Y130.548 E0.05518
G1 X82.313 Y131.428 E0.05518
G1 X80.739 Y132.215 E0.05518
G1 X79.121 Y132.906 E0.05518
G1 X77.465 Y133.500 E0.05515
G1 X75.693 Y134.012 E0.05782
G1 X74.059 Y134.385 E0.05256
G1 X72.323 Y134.673 E0.05518
G1 X70.573 Y134.857 E0.05518
G1 X68.815 Y134.936 E0.05518
G1 X67.055 Y134.910 E0.05518
G1 X65.301 Y134.778 E0.05518
G1 X63.557 Y134.542 E0.05518
G1 X61.830 Y134.202 E0.05518
G1 X60.127 Y133.759 E0.05518
G1 X58.453 Y133.216 E0.05518
G1 X57.722 Y132.929 E0.02463
G1 X57.584 Y133.280 F10800.000
G1 F1200.000
G1 X56.667 Y132.920 E0.03090
G1 X55.050 Y132.170 E0.05588
G1 X53.480 Y131.326 E0.05588
G1 X51.964 Y130.389 E0.05588
G1 X50.506 Y129.363 E0.05588
G1 X49.113 Y128.252 E0.05588
G1 X47.788 Y127.059 E0.05588
G1 X46.538 Y125.789 E0.05588
G1 X45.365 Y124.447 E0.05588
G1 X44.275 Y123.037 E0.05588
G1 X43.271 Y121.564 E0.05588
G1 X42.356 Y120.034 E0.05588
G1 X41.535 Y118.452 E0.05588
G1 X40.810 Y116.824 E0.05588
G1 X40.184 Y115.155 E0.05588
G1 X39.659 Y113.452 E0.05588
G1 X39.236 Y111.721 E0.05588
G1 X38.918 Y109.967 E0.05588
G1 X38.705 Y108.197 E0.05588
G1 X38.599 Y106.418 E0.05588
G1 X38.599 Y104.636 E0.05588
G1 X38.705 Y102.857 E0.05588
G1 X38.918 Y101.087 E0.05588
G1 X39.236 Y99.333 E0.05588
G1 X39.659 Y97.602 E0.05588
G1 X40.184 Y95.899 E0.05588
G1 X40.810 Y94.230 E0.05588
G1 X41.535 Y92.602 E0.05588
G1 X42.356 Y91.020 E0.05588
G1 X43.271 Y89.490 E0.05588
G1 X44.274 Y88.017 E0.05588
G1 X45.420 Y86.544 E0.05852
G1 X46.538 Y85.265 E0.05325
