; generated by PrusaSlicer 2.2.0+ on 2021-01-03 at 06:15:37 UTC

; 

; external perimeters extrusion width = 0.45mm
; perimeters extrusion width = 0.45mm
; infill extrusion width = 0.45mm
; solid infill extrusion width = 0.45mm
; top infill extrusion width = 0.40mm
; support material extrusion width = 0.35mm
; first layer extrusion width = 0.42mm

M73 P0 R110
M73 Q0 S110
M201 X1000 Y1000 Z200 E5000 ; sets maximum accelerations, mm/sec^2
M203 X200 Y200 Z12 E120 ; sets maximum feedrates, mm/sec
M204 P1250 R1250 T1250 ; sets acceleration (P, T) and retract acceleration (R), mm/sec^2
M205 X8.00 Y8.00 Z0.40 E4.50 ; sets the jerk limits, mm/sec
M205 S0 T0 ; sets the minimum extruding and travel feed rate, mm/sec
M107
M862.3 P "MK3S" ; printer model check
M862.1 P0.4 ; nozzle diameter check
M115 U3.9.1 ; tell printer latest fw version
G90 ; use absolute coordinates
M83 ; extruder relative mode
M104 S215 ; set extruder temp
M140 S60 ; set bed temp
M190 S60 ; wait for bed temp
M109 S215 ; wait for extruder temp
G28 W ; home all without mesh bed level
G80 ; mesh bed leveling
G1 Y-3.0 F1000.0 ; go outside print area
G92 E0.0
G1 X60.0 E9.0 F1000.0 ; intro line
M73 Q0 S110
M73 P0 R110
G1 X100.0 E12.5 F1000.0 ; intro line
G92 E0.0
M221 S95

; Don't change E values below. Excessive value can damage the printer.
M907 E430 ; set extruder motor current
G21 ; set units to millimeters
G90 ; use absolute coordinates
M83 ; use relative distances for extrusion
M900 K0.05 ; Filament gcode LA 1.5
M900 K30 ; Filament gcode LA 1.0
;BEFORE_LAYER_CHANGE
G92 E0.0
;0.2


G1 E-0.80000 F2100.00000
G1 Z0.600 F10800.000
;AFTER_LAYER_CHANGE
;0.2
G1 X119.668 Y69.638
G1 Z0.200
G1 E0.80000 F2100.00000
M204 S1000
G1 F1200.000
G1 X120.478 Y69.496 E0.02579
G1 X129.630 Y69.668 E0.28703
G1 X130.149 Y69.749 E0.01645
G1 X130.633 Y69.940 E0.01633
G1 X131.082 Y70.247 E0.01704
G1 X145.047 Y82.444 E0.58136
G1 X146.339 Y83.662 E0.05567
G1 X147.539 Y84.936 E0.05489
G1 X148.755 Y86.390 E0.05942
G1 X149.833 Y87.855 E0.05704
G1 X150.787 Y89.327 E0.05501
G1 X151.721 Y90.977 E0.05942
G1 X152.517 Y92.612 E0.05704
G1 X153.190 Y94.232 E0.05501
G1 X153.811 Y96.023 E0.05942
G1 X154.316 Y97.848 E0.05939
G1 X154.683 Y99.561 E0.05492
G1 X154.954 Y101.337 E0.05632
G1 X155.125 Y103.250 E0.06022
G1 X155.177 Y105.001 E0.05492
G1 X155.122 Y106.819 E0.05704
G1 X154.948 Y108.706 E0.05942
G1 X154.683 Y110.440 E0.05501
G1 X154.316 Y112.152 E0.05489
G1 X153.811 Y113.978 E0.05942
G1 X153.190 Y115.768 E0.05939
G1 X152.518 Y117.386 E0.05492
G1 X151.750 Y118.967 E0.05513
G1 X150.790 Y120.667 E0.06121
G1 X149.835 Y122.143 E0.05513
G1 X148.752 Y123.614 E0.05727
G1 X147.585 Y125.014 E0.05716
G1 X146.292 Y126.384 E0.05906
G1 X131.072 Y139.931 E0.63886
G1 X130.495 Y140.297 E0.02142
G1 X129.834 Y140.484 E0.02154
G1 X120.381 Y140.332 E0.29642
G1 X119.866 Y140.255 E0.01633
G1 X119.380 Y140.067 E0.01633
G1 X118.918 Y139.753 E0.01752
G1 X104.962 Y127.563 E0.58100
G1 X103.661 Y126.338 E0.05603
G1 X102.461 Y125.064 E0.05489
G1 X101.245 Y123.610 E0.05942
G1 X100.167 Y122.145 E0.05704
G1 X99.213 Y120.673 E0.05501
G1 X98.279 Y119.023 E0.05942
G1 X97.483 Y117.388 E0.05704
G1 X96.810 Y115.768 E0.05501
G1 X96.189 Y113.977 E0.05942
G1 X95.684 Y112.152 E0.05939
G1 X95.317 Y110.439 E0.05492
G1 X95.046 Y108.663 E0.05632
G1 X94.875 Y106.750 E0.06022
G1 X94.823 Y104.999 E0.05492
G1 X94.878 Y103.177 E0.05716
G1 X95.053 Y101.291 E0.05939
G1 X95.317 Y99.560 E0.05492
G1 X95.699 Y97.781 E0.05704
G1 X96.212 Y95.954 E0.05950
G1 X96.784 Y94.299 E0.05492
G1 X97.480 Y92.618 E0.05704
G1 X98.313 Y90.915 E0.05942
G1 X99.175 Y89.388 E0.05501
G1 X100.127 Y87.914 E0.05501
G1 X101.243 Y86.392 E0.05918
G1 X102.410 Y84.991 E0.05716
G1 X103.662 Y83.661 E0.05727
G1 X104.969 Y82.430 E0.05632
G1 X118.954 Y70.047 E0.58567
G1 X119.615 Y69.667 E0.02390
G1 F8640.000
G1 X120.478 Y69.496 E-0.20297
G1 X122.890 Y69.542 E-0.55703
G1 E-0.04000 F2100.00000
G1 Z0.800 F10800.000
G1 X120.475 Y71.873
G1 Z0.200
G1 E0.80000 F2100.00000
G1 F1200.000
G1 X120.475 Y77.163 E0.16586
G1 X121.229 Y77.048 E0.02392
G1 X121.229 Y72.043 E0.15694
G1 X121.983 Y72.043 E0.02365
G1 X121.983 Y76.957 E0.15407
G1 X122.738 Y76.888 E0.02374
G1 X122.738 Y72.043 E0.15192
G1 X123.492 Y72.043 E0.02365
G1 X123.492 Y76.832 E0.15015
G1 X124.246 Y76.809 E0.02366
G1 X124.246 Y72.043 E0.14943
G1 X125.000 Y72.043 E0.02365
G1 X125.000 Y76.786 E0.14873
G1 X125.754 Y76.809 E0.02366
G1 X125.754 Y72.043 E0.14943
G1 X126.508 Y72.043 E0.02365
G1 X126.508 Y76.832 E0.15015
G1 X127.262 Y76.888 E0.02371
G1 X127.262 Y72.043 E0.15192
G1 X128.017 Y72.043 E0.02365
G1 X128.017 Y76.957 E0.15407
G1 X128.771 Y77.048 E0.02382
G1 X128.771 Y72.043 E0.15694
G1 X129.525 Y72.043 E0.02365
G1 X129.525 Y77.335 E0.16592
G1 F8640.000
G1 X129.525 Y74.043 E-0.76000
G1 E-0.04000 F2100.00000
G1 Z0.800 F10800.000
G1 X129.525 Y83.021
G1 Z0.200
G1 E0.80000 F2100.00000
G1 F1200.000
G1 X129.525 Y80.235 E0.08735
G1 X128.771 Y80.100 E0.02402
G1 X128.771 Y82.715 E0.08198
G1 X128.017 Y82.590 E0.02397
G1 X128.017 Y80.007 E0.08100
G1 X127.262 Y79.917 E0.02381
G1 X127.262 Y82.512 E0.08135
G1 X126.508 Y82.437 E0.02376
G1 X126.508 Y79.871 E0.08048
G1 X125.754 Y79.826 E0.02369
G1 X125.754 Y82.411 E0.08106
G1 X125.000 Y82.386 E0.02366
G1 X125.000 Y79.826 E0.08029
G1 X124.246 Y79.826 E0.02365
G1 X124.246 Y82.411 E0.08106
G1 X123.492 Y82.437 E0.02366
G1 X123.492 Y79.871 E0.08048
G1 X122.738 Y79.917 E0.02369
G1 X122.738 Y82.512 E0.08135
G1 X121.983 Y82.590 E0.02377
G1 X121.983 Y80.007 E0.08100
G1 X121.229 Y80.100 E0.02383
G1 X121.229 Y82.715 E0.08198
G1 X120.475 Y82.847 E0.02401
G1 X120.475 Y80.063 E0.08730
G1 F8640.000
G1 X120.475 Y82.847 E-0.64291
G1 X120.975 Y82.760 E-0.11709
G1 E-0.04000 F2100.00000
G1 Z0.800 F10800.000
G1 X120.475 Y86.597
G1 Z0.200
G1 E0.80000 F2100.00000
G1 F1200.000
G1 X120.475 Y89.508 E0.09128
G1 X121.229 Y89.508 E0.02365
G1 X121.229 Y86.607 E0.09097
G1 X121.671 Y86.511 E0.01416
G1 X121.983 Y86.466 E0.00991
G1 X121.983 Y89.508 E0.09538
G1 X122.738 Y89.508 E0.02365
G1 X122.738 Y86.358 E0.09878
G1 X123.492 Y86.286 E0.02376
G1 X123.492 Y89.508 E0.10105
G1 X124.246 Y89.508 E0.02365
G1 X124.246 Y86.232 E0.10274
G1 X124.331 Y86.226 E0.00266
G1 X125.000 Y86.226 E0.02099
G1 X125.000 Y89.508 E0.10293
G1 X125.754 Y89.508 E0.02365
G1 X125.754 Y86.232 E0.10274
G1 X126.508 Y86.286 E0.02371
G1 X126.508 Y89.508 E0.10105
G1 X127.262 Y89.508 E0.02365
G1 X127.262 Y86.358 E0.09878
G1 X128.017 Y86.466 E0.02389
G1 X128.017 Y89.508 E0.09538
G1 X128.771 Y89.508 E0.02365
G1 X128.771 Y86.607 E0.09097
G1 X129.525 Y86.771 E0.02420
G1 X129.525 Y89.678 E0.09115
G1 F8640.000
G1 X129.525 Y86.771 E-0.67128
G1 X129.149 Y86.689 E-0.08872
G1 E-0.04000 F2100.00000
G1 Z0.800 F10800.000
G1 X139.329 Y94.944
G1 Z0.200
G1 E0.80000 F2100.00000
G1 F1200.000
G1 X139.329 Y99.799 E0.15222
G1 X138.575 Y99.799 E0.02365
G1 X138.575 Y95.114 E0.14690
G1 X137.821 Y95.114 E0.02365
G1 X137.821 Y99.799 E0.14690
G1 X137.067 Y99.799 E0.02365
G1 X137.067 Y95.114 E0.14690
G1 X136.312 Y95.114 E0.02365
G1 X136.312 Y99.799 E0.14690
G1 X135.558 Y99.799 E0.02365
G1 X135.558 Y95.114 E0.14690
G1 X134.804 Y95.114 E0.02365
G1 X134.804 Y114.886 E0.61995
G1 X135.558 Y114.886 E0.02365
G1 X135.558 Y110.201 E0.14690
G1 X136.312 Y110.201 E0.02365
G1 X136.312 Y114.886 E0.14690
G1 X137.067 Y114.886 E0.02365
G1 X137.067 Y110.201 E0.14690
G1 X137.821 Y110.201 E0.02365
G1 X137.821 Y114.886 E0.14690
G1 X138.575 Y114.886 E0.02365
G1 X138.575 Y110.201 E0.14690
G1 X139.329 Y110.201 E0.02365
G1 X139.329 Y115.056 E0.15222
G1 X134.050 Y115.056 F10800.000
G1 F1200.000
G1 X134.050 Y95.114 E0.62527
G1 X133.296 Y95.114 E0.02365
G1 X133.296 Y114.886 E0.61995
G1 X132.542 Y114.886 E0.02365
G1 X132.542 Y95.114 E0.61995
G1 X131.787 Y95.114 E0.02365
G1 X131.787 Y114.886 E0.61995
G1 X131.033 Y114.886 E0.02365
G1 X131.033 Y95.114 E0.61995
G1 X130.279 Y95.114 E0.02365
G1 X130.279 Y114.886 E0.61995
G1 X129.525 Y114.886 E0.02365
G1 X129.525 Y95.114 E0.61995
G1 X128.771 Y95.114 E0.02365
G1 X128.771 Y114.886 E0.61995
G1 X128.017 Y114.886 E0.02365
G1 X128.017 Y95.114 E0.61995
G1 X127.262 Y95.114 E0.02365
G1 X127.262 Y114.886 E0.61995
G1 X126.508 Y114.886 E0.02365
G1 X126.508 Y95.114 E0.61995
G1 X125.754 Y95.114 E0.02365
G1 X125.754 Y114.886 E0.61995
G1 X125.000 Y114.886 E0.02365
G1 X125.000 Y95.114 E0.61995
G1 X124.246 Y95.114 E0.02365
G1 X124.246 Y114.886 E0.61995
G1 X123.492 Y114.886 E0.02365
G1 X123.492 Y95.114 E0.61995
G1 X122.738 Y95.114 E0.02365
G1 X122.738 Y114.886 E0.61995
G1 X121.983 Y114.886 E0.02365
G1 X121.983 Y95.114 E0.61995
G1 X121.229 Y95.114 E0.02365
G1 X121.229 Y114.886 E0.61995
G1 X120.475 Y114.886 E0.02365
G1 X120.475 Y95.114 E0.61995
G1 X119.721 Y95.114 E0.02365
G1 X119.721 Y114.886 E0.61995
G1 X118.967 Y114.886 E0.02365
G1 X118.967 Y95.114 E0.61995
G1 X118.213 Y95.114 E0.02365
G1 X118.213 Y114.886 E0.61995
G1 X117.458 Y114.886 E0.02365
G1 X117.458 Y95.114 E0.61995
G1 X116.704 Y95.114 E0.02365
G1 X116.704 Y114.886 E0.61995
G1 X115.950 Y114.886 E0.02365
G1 X115.950 Y95.114 E0.61995
G1 X115.196 Y95.114 E0.02365
G1 X115.196 Y114.886 E0.61995
G1 X114.442 Y114.886 E0.02365
G1 X114.442 Y110.201 E0.14690
G1 X113.688 Y110.201 E0.02365
G1 X113.688 Y114.886 E0.14690
G1 X112.933 Y114.886 E0.02365
G1 X112.933 Y110.201 E0.14690
G1 X112.179 Y110.201 E0.02365
G1 X112.179 Y114.886 E0.14690
G1 X111.425 Y114.886 E0.02365
G1 X111.425 Y110.201 E0.14690
G1 X110.671 Y110.201 E0.02365
G1 X110.671 Y115.056 E0.15222
G1 F8640.000
G1 X110.671 Y111.764 E-0.76000
G1 E-0.04000 F2100.00000
G1 Z0.800 F10800.000
G1 X120.475 Y120.322
G1 Z0.200
G1 E0.80000 F2100.00000
G1 F1200.000
G1 X120.475 Y123.229 E0.09115
G1 X121.229 Y123.393 E0.02420
G1 X121.229 Y120.492 E0.09097
G1 X121.983 Y120.492 E0.02365
G1 X121.983 Y123.534 E0.09538
G1 X122.738 Y123.642 E0.02389
G1 X122.738 Y120.492 E0.09878
G1 X123.492 Y120.492 E0.02365
G1 X123.492 Y123.714 E0.10105
G1 X124.246 Y123.768 E0.02371
G1 X124.246 Y120.492 E0.10274
G1 X125.000 Y120.492 E0.02365
G1 X125.000 Y123.774 E0.10293
G1 X125.754 Y123.768 E0.02365
G1 X125.754 Y120.492 E0.10274
G1 X126.508 Y120.492 E0.02365
M73 Q0 S109
G1 X126.508 Y123.714 E0.10105
G1 X127.262 Y123.642 E0.02376
G1 X127.262 Y120.492 E0.09878
M73 P0 R109
G1 X128.017 Y120.492 E0.02365
G1 X128.017 Y123.534 E0.09538
G1 X128.329 Y123.489 E0.00991
G1 X128.771 Y123.393 E0.01416
G1 X128.771 Y120.492 E0.09097
G1 X129.525 Y120.492 E0.02365
G1 X129.525 Y123.403 E0.09128
G1 F8640.000
G1 X129.525 Y120.492 E-0.67220
G1 X129.145 Y120.492 E-0.08780
G1 E-0.04000 F2100.00000
G1 Z0.800 F10800.000
G1 X129.525 Y129.937
G1 Z0.200
G1 E0.80000 F2100.00000
G1 F1200.000
G1 X129.525 Y127.153 E0.08730
G1 X128.771 Y127.285 E0.02401
G1 X128.771 Y129.900 E0.08198
G1 X128.017 Y129.993 E0.02383
G1 X128.017 Y127.410 E0.08100
G1 X127.262 Y127.488 E0.02377
G1 X127.262 Y130.083 E0.08135
G1 X126.508 Y130.129 E0.02369
G1 X126.508 Y127.563 E0.08048
G1 X125.754 Y127.589 E0.02366
G1 X125.754 Y130.174 E0.08106
G1 X125.000 Y130.174 E0.02365
G1 X125.000 Y127.614 E0.08029
G1 X124.246 Y127.589 E0.02366
G1 X124.246 Y130.174 E0.08106
G1 X123.492 Y130.129 E0.02369
G1 X123.492 Y127.563 E0.08048
G1 X122.738 Y127.488 E0.02376
G1 X122.738 Y130.083 E0.08135
G1 X121.983 Y129.993 E0.02381
G1 X121.983 Y127.410 E0.08100
G1 X121.229 Y127.285 E0.02397
G1 X121.229 Y129.900 E0.08198
G1 X120.475 Y129.765 E0.02402
G1 X120.475 Y126.979 E0.08735
G1 F8640.000
G1 X120.475 Y129.765 E-0.64328
G1 X120.973 Y129.854 E-0.11672
G1 E-0.04000 F2100.00000
G1 Z0.800 F10800.000
G1 X120.475 Y132.665
G1 Z0.200
G1 E0.80000 F2100.00000
G1 F1200.000
G1 X120.475 Y137.957 E0.16592
G1 X121.229 Y137.957 E0.02365
G1 X121.229 Y132.952 E0.15694
G1 X121.983 Y133.043 E0.02382
G1 X121.983 Y137.957 E0.15407
G1 X122.738 Y137.957 E0.02365
G1 X122.738 Y133.112 E0.15192
G1 X123.492 Y133.168 E0.02371
G1 X123.492 Y137.957 E0.15015
G1 X124.246 Y137.957 E0.02365
G1 X124.246 Y133.191 E0.14943
G1 X125.000 Y133.214 E0.02366
G1 X125.000 Y137.957 E0.14873
G1 X125.754 Y137.957 E0.02365
G1 X125.754 Y133.191 E0.14943
G1 X126.508 Y133.168 E0.02366
G1 X126.508 Y137.957 E0.15015
G1 X127.262 Y137.957 E0.02365
G1 X127.262 Y133.112 E0.15192
G1 X128.017 Y133.043 E0.02374
G1 X128.017 Y137.957 E0.15407
G1 X128.771 Y137.957 E0.02365
G1 X128.771 Y132.952 E0.15694
G1 X129.525 Y132.837 E0.02392
G1 X129.525 Y138.127 E0.16585
G1 F8640.000
G1 X129.525 Y134.835 E-0.76000
G1 E-0.04000 F2100.00000
G1 Z0.800 F10800.000
G1 X114.442 Y99.969
G1 Z0.200
G1 E0.80000 F2100.00000
G1 F1200.000
G1 X114.442 Y95.114 E0.15222
G1 X113.688 Y95.114 E0.02365
G1 X113.688 Y99.799 E0.14690
G1 X112.933 Y99.799 E0.02365
G1 X112.933 Y95.114 E0.14690
G1 X112.179 Y95.114 E0.02365
G1 X112.179 Y99.799 E0.14690
G1 X111.425 Y99.799 E0.02365
G1 X111.425 Y95.114 E0.14690
G1 X110.671 Y95.114 E0.02365
G1 X110.671 Y99.969 E0.15222
G1 F8640.000
G1 X110.671 Y96.677 E-0.76000
G1 E-0.04000 F2100.00000
G1 Z0.800 F10800.000
G1 X144.647 Y101.000
G1 Z0.200
G1 E0.80000 F2100.00000
G1 F1200.000
G1 X136.337 Y101.000 E0.26056
G1 X136.337 Y109.000 E0.25086
G1 X144.648 Y109.000 E0.26057
G1 X143.949 Y111.358 E0.07709
G1 X143.454 Y112.678 E0.04421
G1 X142.860 Y113.973 E0.04468
G1 X142.168 Y115.235 E0.04513
G1 X141.403 Y116.421 E0.04422
G1 X140.548 Y117.560 E0.04468
G1 X139.603 Y118.647 E0.04513
G1 X138.605 Y119.643 E0.04422
G1 X137.527 Y120.575 E0.04468
G1 X136.374 Y121.436 E0.04513
G1 X135.186 Y122.198 E0.04426
G1 X133.934 Y122.880 E0.04468
G1 X132.625 Y123.475 E0.04510
G1 X131.303 Y123.968 E0.04424
G1 X129.936 Y124.369 E0.04467
G1 X128.544 Y124.671 E0.04467
G1 X127.139 Y124.873 E0.04450
G1 X125.708 Y124.975 E0.04498
G1 X124.278 Y124.974 E0.04484
G1 X122.865 Y124.873 E0.04443
G1 X121.469 Y124.673 E0.04421
G1 X120.064 Y124.369 E0.04507
G1 X118.697 Y123.968 E0.04468
G1 X117.362 Y123.471 E0.04467
G1 X116.065 Y122.879 E0.04467
G1 X114.814 Y122.198 E0.04467
G1 X113.614 Y121.427 E0.04471
G1 X112.484 Y120.584 E0.04422
G1 X111.395 Y119.643 E0.04513
G1 X110.386 Y118.636 E0.04468
G1 X109.452 Y117.560 E0.04468
G1 X108.597 Y116.421 E0.04467
G1 X107.832 Y115.235 E0.04422
G1 X107.140 Y113.973 E0.04513
G1 X106.546 Y112.678 E0.04468
G1 X106.046 Y111.344 E0.04467
G1 X105.353 Y109.000 E0.07663
G1 X113.663 Y109.000 E0.26056
G1 X113.663 Y101.000 E0.25086
G1 X105.352 Y101.000 E0.26057
G1 X106.051 Y98.642 E0.07709
G1 X106.546 Y97.322 E0.04421
G1 X107.140 Y96.027 E0.04468
G1 X107.832 Y94.765 E0.04513
G1 X108.597 Y93.579 E0.04422
G1 X109.452 Y92.440 E0.04468
G1 X110.397 Y91.353 E0.04513
G1 X111.395 Y90.358 E0.04422
G1 X112.473 Y89.425 E0.04468
G1 X113.626 Y88.564 E0.04513
G1 X114.814 Y87.802 E0.04426
G1 X116.066 Y87.120 E0.04468
G1 X117.375 Y86.525 E0.04510
G1 X118.697 Y86.032 E0.04424
G1 X120.064 Y85.631 E0.04467
G1 X121.456 Y85.329 E0.04467
G1 X122.861 Y85.127 E0.04450
G1 X124.297 Y85.025 E0.04515
G1 X125.722 Y85.026 E0.04467
G1 X127.135 Y85.127 E0.04443
G1 X128.531 Y85.327 E0.04421
G1 X129.936 Y85.631 E0.04507
G1 X131.303 Y86.032 E0.04468
G1 X132.638 Y86.529 E0.04467
G1 X133.935 Y87.121 E0.04467
G1 X135.186 Y87.802 E0.04467
G1 X136.386 Y88.573 E0.04471
G1 X137.516 Y89.416 E0.04422
G1 X138.605 Y90.357 E0.04513
G1 X139.614 Y91.364 E0.04468
G1 X140.548 Y92.440 E0.04468
G1 X141.403 Y93.579 E0.04467
G1 X142.168 Y94.765 E0.04422
G1 X142.860 Y96.027 E0.04513
G1 X143.454 Y97.322 E0.04468
G1 X143.954 Y98.656 E0.04467
G1 X144.630 Y100.942 E0.07475
G1 X144.142 Y100.622 F10800.000
G1 F1200.000
G1 X135.960 Y100.622 E0.25656
G1 X135.960 Y109.377 E0.27451
G1 X144.143 Y109.377 E0.25656
G1 X143.591 Y111.238 E0.06084
G1 X143.105 Y112.533 E0.04338
G1 X142.523 Y113.804 E0.04383
G1 X141.843 Y115.042 E0.04429
G1 X141.094 Y116.205 E0.04338
G1 X140.254 Y117.323 E0.04383
G1 X139.328 Y118.389 E0.04429
G1 X138.348 Y119.366 E0.04338
G1 X137.291 Y120.281 E0.04383
G1 X136.159 Y121.125 E0.04429
G1 X134.993 Y121.873 E0.04341
G1 X133.766 Y122.542 E0.04383
G1 X132.481 Y123.127 E0.04425
G1 X131.184 Y123.610 E0.04340
G1 X129.843 Y124.003 E0.04383
G1 X128.477 Y124.300 E0.04383
G1 X127.099 Y124.498 E0.04365
G1 X125.695 Y124.598 E0.04413
G1 X124.292 Y124.597 E0.04400
G1 X122.905 Y124.498 E0.04359
G1 X121.536 Y124.302 E0.04337
