; generated by PrusaSlicer 2.2.0+ on 2020-11-09 at 23:30:51 UTC

; 

; external perimeters extrusion width = 0.45mm
; perimeters extrusion width = 0.45mm
; infill extrusion width = 0.45mm
; solid infill extrusion width = 0.45mm
; top infill extrusion width = 0.40mm
; support material extrusion width = 0.35mm
; first layer extrusion width = 0.42mm

M73 P0 R147
M73 Q0 S147
M201 X1000 Y1000 Z200 E5000 ; sets maximum accelerations, mm/sec^2
M203 X200 Y200 Z12 E120 ; sets maximum feedrates, mm/sec
M204 P1250 R1250 T1250 ; sets acceleration (P, T) and retract acceleration (R), mm/sec^2
M205 X8.00 Y8.00 Z0.40 E4.50 ; sets the jerk limits, mm/sec
M205 S0 T0 ; sets the minimum extruding and travel feed rate, mm/sec
M107
M862.3 P "MK3S" ; printer model check
M862.1 P0.4 ; nozzle diameter check
M115 U3.9.1 ; tell printer latest fw version
G90 ; use absolute coordinates
M83 ; extruder relative mode
M104 S215 ; set extruder temp
M140 S60 ; set bed temp
M190 S60 ; wait for bed temp
M109 S215 ; wait for extruder temp
G28 W ; home all without mesh bed level
G80 ; mesh bed leveling
G1 Y-3.0 F1000.0 ; go outside print area
G92 E0.0
G1 X60.0 E9.0 F1000.0 ; intro line
M73 Q0 S147
M73 P0 R147
G1 X100.0 E12.5 F1000.0 ; intro line
G92 E0.0
M221 S95

; Don't change E values below. Excessive value can damage the printer.
M907 E430 ; set extruder motor current
G21 ; set units to millimeters
G90 ; use absolute coordinates
M83 ; use relative distances for extrusion
M900 K0.05 ; Filament gcode LA 1.5
M900 K30 ; Filament gcode LA 1.0
;BEFORE_LAYER_CHANGE
G92 E0.0
;0.2


G1 E-0.80000 F2100.00000
G1 Z0.600 F10800.000
;AFTER_LAYER_CHANGE
;0.2
G1 X185.111 Y130.604
G1 Z0.200
G1 E0.80000 F2100.00000
M204 S1000
G1 F1200.000
G1 X184.906 Y131.236 E0.02083
G1 X182.588 Y135.788 E0.16017
G1 X180.233 Y138.624 E0.11557
G1 X179.726 Y139.011 E0.02000
G1 X179.134 Y139.250 E0.02000
G1 X105.575 Y155.498 E2.36200
G1 X103.662 Y155.819 E0.06083
G1 X101.598 Y156.036 E0.06505
G1 X99.716 Y156.119 E0.05908
G1 X97.839 Y156.092 E0.05884
G1 X95.823 Y155.944 E0.06338
G1 X93.828 Y155.671 E0.06314
G1 X91.979 Y155.306 E0.05908
G1 X90.159 Y154.834 E0.05896
G1 X88.239 Y154.213 E0.06326
G1 X86.361 Y153.472 E0.06330
G1 X84.656 Y152.681 E0.05892
G1 X82.980 Y151.780 E0.05968
G1 X81.224 Y150.694 E0.06473
G1 X79.688 Y149.611 E0.05892
G1 X78.164 Y148.396 E0.06111
G1 X76.719 Y147.094 E0.06099
G1 X75.396 Y145.752 E0.05908
G1 X74.022 Y144.180 E0.06545
G1 X72.874 Y142.693 E0.05892
G1 X71.776 Y141.082 E0.06111
G1 X70.778 Y139.413 E0.06099
G1 X69.909 Y137.741 E0.05908
G1 X69.062 Y135.838 E0.06529
G1 X68.401 Y134.074 E0.05908
G1 X67.827 Y132.215 E0.06099
G1 X67.351 Y130.249 E0.06342
G1 X67.016 Y128.400 E0.05892
G1 X66.784 Y126.465 E0.06111
G1 X66.667 Y124.523 E0.06099
G1 X66.666 Y122.638 E0.05908
G1 X66.791 Y120.555 E0.06545
G1 X67.017 Y118.689 E0.05892
G1 X67.365 Y116.771 E0.06111
G1 X67.826 Y114.881 E0.06099
G1 X68.379 Y113.084 E0.05896
G1 X69.112 Y111.131 E0.06541
G1 X69.879 Y109.410 E0.05908
G1 X70.772 Y107.690 E0.06076
G1 X71.775 Y106.010 E0.06135
G1 X72.836 Y104.452 E0.05908
G1 X74.113 Y102.801 E0.06545
G1 X75.350 Y101.387 E0.05892
G1 X76.718 Y99.998 E0.06111
G1 X78.163 Y98.697 E0.06099
G1 X79.636 Y97.521 E0.05908
G1 X119.761 Y68.697 E1.54904
G1 X120.387 Y68.380 E0.02201
G1 X130.099 Y65.268 E0.31977
G1 X130.830 Y65.155 E0.02319
G1 X131.543 Y65.266 E0.02260
G1 X132.189 Y65.585 E0.02260
G1 X166.184 Y89.964 E1.31164
G1 X177.006 Y103.378 E0.54039
G1 X178.630 Y105.930 E0.09486
G1 X179.392 Y107.423 E0.05255
G1 X184.968 Y120.885 E0.45687
G1 X185.112 Y121.386 E0.01633
G1 X185.111 Y130.544 E0.28714
G1 F8640.000
G1 X184.906 Y131.236 E-0.16665
G1 X183.740 Y133.526 E-0.59335
G1 E-0.04000 F2100.00000
G1 Z0.800 F10800.000
G1 X128.576 Y125.455
G1 Z0.200
G1 E0.80000 F2100.00000
G1 F1200.000
G1 X128.432 Y127.057 E0.05043
G1 X128.170 Y128.797 E0.05518
G1 X127.804 Y130.519 E0.05518
G1 X127.336 Y132.215 E0.05518
G1 X126.767 Y133.880 E0.05515
G1 X126.063 Y135.584 E0.05782
G1 X125.336 Y137.094 E0.05256
G1 X124.479 Y138.631 E0.05518
G1 X123.532 Y140.114 E0.05518
G1 X122.497 Y141.538 E0.05518
G1 X121.379 Y142.897 E0.05518
G1 X120.183 Y144.187 E0.05518
G1 X118.911 Y145.403 E0.05518
G1 X117.568 Y146.541 E0.05518
G1 X116.160 Y147.597 E0.05518
G1 X114.691 Y148.566 E0.05518
G1 X113.167 Y149.446 E0.05518
G1 X111.594 Y150.233 E0.05518
G1 X109.975 Y150.925 E0.05518
G1 X108.319 Y151.518 E0.05515
G1 X106.548 Y152.031 E0.05782
G1 X104.914 Y152.404 E0.05256
G1 X103.178 Y152.692 E0.05518
G1 X101.428 Y152.876 E0.05518
G1 X99.670 Y152.955 E0.05518
G1 X97.910 Y152.929 E0.05518
G1 X96.155 Y152.797 E0.05518
G1 X94.411 Y152.561 E0.05518
G1 X92.685 Y152.221 E0.05518
G1 X90.982 Y151.778 E0.05518
G1 X89.308 Y151.234 E0.05518
G1 X87.670 Y150.591 E0.05518
G1 X86.073 Y149.852 E0.05518
G1 X84.523 Y149.018 E0.05518
G1 X83.026 Y148.093 E0.05518
G1 X81.587 Y147.080 E0.05518
G1 X80.212 Y145.982 E0.05518
G1 X78.904 Y144.805 E0.05518
G1 X77.669 Y143.551 E0.05518
G1 X76.511 Y142.226 E0.05518
G1 X75.434 Y140.834 E0.05518
G1 X74.443 Y139.380 E0.05518
G1 X73.541 Y137.869 E0.05518
G1 X72.730 Y136.307 E0.05518
G1 X72.014 Y134.700 E0.05518
G1 X71.396 Y133.052 E0.05518
G1 X70.877 Y131.370 E0.05518
G1 X70.460 Y129.661 E0.05518
G1 X70.146 Y127.929 E0.05518
G1 X69.936 Y126.182 E0.05518
G1 X69.830 Y124.426 E0.05518
G1 X69.830 Y122.666 E0.05518
G1 X69.936 Y120.909 E0.05518
G1 X70.146 Y119.162 E0.05518
G1 X70.460 Y117.430 E0.05518
G1 X70.877 Y115.721 E0.05518
G1 X71.396 Y114.039 E0.05518
G1 X72.014 Y112.392 E0.05518
G1 X72.730 Y110.784 E0.05518
G1 X73.541 Y109.222 E0.05518
G1 X74.443 Y107.711 E0.05518
G1 X75.434 Y106.258 E0.05515
G1 X76.566 Y104.802 E0.05782
G1 X77.669 Y103.540 E0.05256
G1 X78.904 Y102.286 E0.05518
G1 X80.212 Y101.109 E0.05518
G1 X81.587 Y100.012 E0.05515
G1 X83.098 Y98.955 E0.05782
G1 X84.523 Y98.074 E0.05256
G1 X86.073 Y97.240 E0.05518
G1 X87.670 Y96.500 E0.05518
G1 X89.308 Y95.857 E0.05518
G1 X90.982 Y95.313 E0.05518
G1 X92.685 Y94.871 E0.05518
G1 X94.411 Y94.530 E0.05518
G1 X96.155 Y94.294 E0.05518
G1 X97.909 Y94.163 E0.05515
G1 X99.753 Y94.140 E0.05782
G1 X101.428 Y94.215 E0.05256
G1 X103.178 Y94.399 E0.05518
G1 X104.914 Y94.688 E0.05518
G1 X106.630 Y95.079 E0.05518
G1 X108.319 Y95.573 E0.05518
G1 X109.975 Y96.166 E0.05518
G1 X111.594 Y96.858 E0.05518
G1 X113.167 Y97.645 E0.05518
G1 X114.691 Y98.525 E0.05518
G1 X116.160 Y99.494 E0.05518
G1 X117.568 Y100.550 E0.05515
G1 X118.971 Y101.746 E0.05782
G1 X120.183 Y102.904 E0.05256
G1 X121.379 Y104.194 E0.05518
G1 X122.497 Y105.553 E0.05518
G1 X123.014 Y106.265 E0.02759
G1 X123.532 Y106.977 E0.02759
G1 X124.479 Y108.460 E0.05518
G1 X125.336 Y109.997 E0.05518
G1 X126.099 Y111.582 E0.05518
G1 X126.767 Y113.211 E0.05518
G1 X127.336 Y114.876 E0.05518
G1 X127.804 Y116.573 E0.05518
G1 X128.170 Y118.294 E0.05518
G1 X128.432 Y120.034 E0.05518
G1 X128.590 Y121.787 E0.05518
G1 X128.642 Y123.546 E0.05518
G1 X128.581 Y125.396 E0.05804
G1 X128.957 Y125.429 F10800.000
G1 F1200.000
G1 X128.806 Y127.102 E0.05267
G1 X128.541 Y128.865 E0.05588
G1 X128.170 Y130.608 E0.05588
G1 X127.696 Y132.326 E0.05588
G1 X127.120 Y134.013 E0.05588
G1 X126.408 Y135.738 E0.05852
G1 X125.671 Y137.268 E0.05325
G1 X124.803 Y138.825 E0.05588
G1 X123.843 Y140.327 E0.05588
G1 X122.796 Y141.769 E0.05588
G1 X121.664 Y143.146 E0.05588
G1 X120.451 Y144.452 E0.05588
G1 X119.163 Y145.684 E0.05588
G1 X117.803 Y146.836 E0.05588
G1 X116.377 Y147.905 E0.05588
G1 X114.890 Y148.887 E0.05588
G1 X113.346 Y149.778 E0.05588
G1 X111.752 Y150.576 E0.05588
G1 X110.113 Y151.276 E0.05588
G1 X108.436 Y151.877 E0.05588
G1 X106.642 Y152.396 E0.05852
G1 X104.987 Y152.774 E0.05325
G1 X103.229 Y153.066 E0.05588
G1 X101.456 Y153.252 E0.05588
G1 X99.675 Y153.332 E0.05588
G1 X97.893 Y153.305 E0.05588
G1 X96.116 Y153.172 E0.05588
G1 X94.350 Y152.933 E0.05588
G1 X92.601 Y152.589 E0.05588
G1 X90.876 Y152.140 E0.05588
G1 X89.181 Y151.589 E0.05588
G1 X87.522 Y150.938 E0.05588
G1 X85.904 Y150.189 E0.05588
G1 X84.335 Y149.344 E0.05588
G1 X82.819 Y148.407 E0.05588
G1 X81.361 Y147.381 E0.05588
G1 X79.968 Y146.270 E0.05588
G1 X78.643 Y145.078 E0.05588
G1 X77.392 Y143.808 E0.05588
G1 X76.220 Y142.466 E0.05588
G1 X75.129 Y141.056 E0.05588
G1 X74.125 Y139.583 E0.05588
G1 X73.211 Y138.053 E0.05588
G1 X72.390 Y136.471 E0.05588
G1 X71.665 Y134.843 E0.05588
G1 X71.039 Y133.174 E0.05588
G1 X70.513 Y131.471 E0.05588
G1 X70.091 Y129.739 E0.05588
G1 X69.773 Y127.986 E0.05588
G1 X69.560 Y126.216 E0.05588
G1 X69.453 Y124.437 E0.05588
G1 X69.453 Y122.654 E0.05588
G1 X69.560 Y120.875 E0.05588
G1 X69.773 Y119.106 E0.05588
G1 X70.091 Y117.352 E0.05588
G1 X70.513 Y115.620 E0.05588
G1 X71.039 Y113.917 E0.05588
G1 X71.665 Y112.249 E0.05588
G1 X72.390 Y110.620 E0.05588
G1 X73.211 Y109.038 E0.05588
G1 X74.125 Y107.508 E0.05588
G1 X75.129 Y106.036 E0.05588
G1 X76.275 Y104.562 E0.05852
G1 X77.392 Y103.283 E0.05325
G1 X78.643 Y102.014 E0.05588
G1 X79.968 Y100.821 E0.05588
G1 X81.361 Y99.710 E0.05588
G1 X82.890 Y98.640 E0.05852
G1 X84.335 Y97.747 E0.05325
G1 X85.904 Y96.902 E0.05588
G1 X87.522 Y96.153 E0.05588
G1 X89.181 Y95.502 E0.05588
G1 X90.876 Y94.951 E0.05588
G1 X92.601 Y94.503 E0.05588
G1 X94.350 Y94.158 E0.05588
G1 X96.116 Y93.919 E0.05588
G1 X97.893 Y93.786 E0.05588
G1 X99.759 Y93.763 E0.05852
G1 X101.456 Y93.839 E0.05325
G1 X103.229 Y94.025 E0.05588
G1 X104.987 Y94.317 E0.05588
G1 X106.724 Y94.714 E0.05588
G1 X108.435 Y95.214 E0.05588
G1 X110.113 Y95.815 E0.05588
G1 X111.752 Y96.516 E0.05588
G1 X113.346 Y97.313 E0.05588
G1 X114.890 Y98.204 E0.05588
G1 X116.377 Y99.186 E0.05588
G1 X117.803 Y100.255 E0.05588
G1 X119.224 Y101.466 E0.05852
G1 X120.451 Y102.639 E0.05325
G1 X121.664 Y103.946 E0.05588
G1 X122.796 Y105.323 E0.05588
G1 X123.319 Y106.043 E0.02794
G1 X123.843 Y106.764 E0.02794
G1 X124.803 Y108.266 E0.05588
G1 X125.671 Y109.823 E0.05588
G1 X126.444 Y111.429 E0.05588
G1 X127.120 Y113.078 E0.05588
G1 X127.696 Y114.765 E0.05588
G1 X128.170 Y116.483 E0.05588
G1 X128.541 Y118.226 E0.05588
G1 X128.806 Y119.989 E0.05588
G1 X128.966 Y121.764 E0.05588
G1 X129.020 Y123.546 E0.05588
G1 X128.962 Y125.370 E0.05722
G1 X128.599 Y125.608 F10800.000
G1 F8640.000
G1 X128.806 Y127.102 E-0.40170
G1 X128.575 Y128.637 E-0.35830
G1 E-0.04000 F2100.00000
G1 Z0.800 F10800.000
G1 X76.409 Y141.909
G1 Z0.200
G1 E0.80000 F2100.00000
G1 F1200.000
G1 X79.107 Y144.607 E0.12000
G1 X80.395 Y145.767 E0.05449
G1 X81.757 Y146.853 E0.05482
G1 X82.199 Y147.164 E0.01698
G1 X75.580 Y140.545 E0.29439
G1 X74.682 Y139.228 E0.05016
G1 X74.510 Y138.941 E0.01052
G1 X83.820 Y148.251 E0.41411
G1 X84.665 Y148.773 E0.03123
G1 X85.124 Y149.020 E0.01641
G1 X73.736 Y137.631 E0.50656
G1 X73.158 Y136.519 E0.03941
G1 X86.271 Y149.632 E0.58323
G1 X87.268 Y150.093 E0.03455
G1 X72.685 Y135.510 E0.64863
G1 X72.261 Y134.551 E0.03298
G1 X88.208 Y150.499 E0.70932
G1 X89.088 Y150.844 E0.02975
G1 X71.939 Y133.695 E0.76278
G1 X71.630 Y132.851 E0.02829
G1 X89.912 Y151.133 E0.81320
G1 X90.705 Y151.391 E0.02620
G1 X71.391 Y132.077 E0.85905
G1 X71.152 Y131.303 E0.02546
G1 X91.459 Y151.610 E0.90321
G1 X92.182 Y151.798 E0.02349
G1 X70.979 Y130.595 E0.94307
G1 X70.806 Y129.888 E0.02291
G1 X92.892 Y151.973 E0.98235
G1 X93.558 Y152.105 E0.02135
G1 X70.666 Y129.212 E1.01823
G1 X70.547 Y128.559 E0.02089
G1 X94.224 Y152.236 E1.05313
G1 X94.860 Y152.336 E0.02023
G1 X70.429 Y127.905 E1.08667
M73 Q0 S146
G1 X70.354 Y127.296 E0.01931
G1 X95.478 Y152.420 E1.11750
M73 P0 R146
G1 X96.097 Y152.504 E0.01964
G1 X70.281 Y126.688 E1.14827
G1 X70.213 Y126.085 E0.01909
G1 X96.681 Y152.553 E1.17728
G1 X97.259 Y152.596 E0.01824
G1 X70.179 Y125.516 E1.20451
G1 X70.145 Y124.947 E0.01793
G1 X97.838 Y152.640 E1.23175
G1 X98.386 Y152.653 E0.01725
G1 X70.113 Y124.380 E1.25755
G1 X70.113 Y123.845 E0.01682
G1 X98.929 Y152.661 E1.28170
G1 X99.472 Y152.669 E0.01708
G1 X70.113 Y123.310 E1.30585
G1 X70.113 Y122.775 E0.01682
G1 X99.995 Y152.657 E1.32912
G1 X100.507 Y152.634 E0.01612
G1 X70.138 Y122.265 E1.35080
G1 X70.168 Y121.760 E0.01590
G1 X101.019 Y152.611 E1.37222
G1 X101.524 Y152.582 E0.01592
G1 X70.198 Y121.256 E1.39335
G1 X70.238 Y120.761 E0.01561
G1 X102.008 Y152.531 E1.41309
G1 X102.492 Y152.480 E0.01531
G1 X70.296 Y120.283 E1.43207
G1 X70.353 Y119.806 E0.01513
G1 X102.976 Y152.429 E1.45104
G1 X103.444 Y152.361 E0.01485
G1 X70.411 Y119.328 E1.46927
G1 X70.486 Y118.869 E0.01464
G1 X103.902 Y152.285 E1.48631
G1 X104.361 Y152.209 E0.01463
G1 X70.568 Y118.416 E1.50306
G1 X70.651 Y117.964 E0.01447
G1 X104.820 Y152.133 E1.51981
G1 X105.257 Y152.035 E0.01410
G1 X70.733 Y117.511 E1.53561
G1 X70.837 Y117.080 E0.01395
G1 X105.693 Y151.936 E1.55037
G1 X106.128 Y151.837 E0.01405
G1 X70.942 Y116.650 E1.56507
G1 X71.046 Y116.220 E0.01392
G1 X106.560 Y151.733 E1.57959
G1 X106.975 Y151.613 E0.01358
G1 X71.152 Y115.790 E1.59337
G1 X71.278 Y115.381 E0.01346
G1 X107.390 Y151.493 E1.60621
G1 X107.804 Y151.373 E0.01358
G1 X71.404 Y114.972 E1.61906
G1 X71.530 Y114.564 E0.01346
G1 X108.219 Y151.253 E1.63190
M73 Q1 S145
G1 X108.614 Y151.113 E0.01317
G1 X71.656 Y114.155 E1.64384
M73 P1 R145
G1 X71.801 Y113.765 E0.01309
G1 X109.008 Y150.971 E1.65492
G1 X109.401 Y150.830 E0.01316
G1 X71.947 Y113.376 E1.66594
G1 X72.093 Y112.987 E0.01307
G1 X109.795 Y150.689 E1.67696
G1 X110.174 Y150.533 E0.01288
G1 X72.239 Y112.598 E1.68730
G1 X72.399 Y112.223 E0.01282
G1 X110.548 Y150.373 E1.69685
G1 X110.923 Y150.212 E0.01282
G1 X72.564 Y111.853 E1.70619
G1 X72.728 Y111.483 E0.01274
G1 X111.298 Y150.052 E1.71553
G1 X111.663 Y149.882 E0.01266
G1 X72.893 Y111.113 E1.72444
G1 X73.066 Y110.750 E0.01262
G1 X112.020 Y149.704 E1.73262
G1 X112.376 Y149.526 E0.01254
G1 X73.249 Y110.398 E1.74035
G1 X73.432 Y110.046 E0.01248
G1 X112.733 Y149.347 E1.74808
G1 X113.087 Y149.166 E0.01250
G1 X73.614 Y109.694 E1.75569
G1 X73.798 Y109.343 E0.01247
G1 X113.426 Y148.971 E1.76261
G1 X113.765 Y148.775 E0.01232
G1 X73.998 Y109.008 E1.76879
G1 X74.198 Y108.673 E0.01227
G1 X114.104 Y148.579 E1.77498
G1 X114.443 Y148.383 E0.01232
G1 X74.398 Y108.338 E1.78116
G1 X74.598 Y108.003 E0.01227
G1 X114.770 Y148.175 E1.78682
G1 X115.093 Y147.963 E0.01214
G1 X74.808 Y107.678 E1.79181
G1 X75.025 Y107.360 E0.01211
G1 X115.415 Y147.750 E1.79650
G1 X115.737 Y147.537 E0.01214
G1 X75.242 Y107.042 E1.80119
G1 X75.459 Y106.724 E0.01211
G1 X116.056 Y147.321 E1.80573
M73 Q2 S144
G1 X116.362 Y147.092 E0.01202
G1 X75.676 Y106.407 E1.80964
M73 P2 R144
G1 X75.910 Y106.106 E0.01199
G1 X116.668 Y146.863 E1.81283
G1 X116.973 Y146.634 E0.01202
G1 X76.144 Y105.805 E1.81602
G1 X76.378 Y105.504 E0.01199
G1 X117.279 Y146.405 E1.81921
G1 X117.392 Y146.320 E0.00443
G1 X117.575 Y146.165 E0.00754
G1 X76.612 Y105.203 E1.82195
G1 X76.851 Y104.906 E0.01197
G1 X117.864 Y145.920 E1.82424
G1 X118.154 Y145.674 E0.01194
G1 X77.100 Y104.621 E1.82602
G1 X77.349 Y104.335 E0.01192
G1 X118.443 Y145.429 E1.82780
G1 X118.732 Y145.183 E0.01193
G1 X77.599 Y104.050 E1.82956
G1 X77.848 Y103.764 E0.01192
G1 X119.005 Y144.922 E1.83063
G1 X119.279 Y144.660 E0.01190
G1 X78.112 Y103.493 E1.83106
G1 X78.377 Y103.224 E0.01190
G1 X119.552 Y144.399 E1.83142
G1 X119.826 Y144.137 E0.01190
G1 X78.643 Y102.954 E1.83177
G1 X78.908 Y102.685 E0.01190
G1 X120.092 Y143.869 E1.83182
G1 X120.350 Y143.591 E0.01190
G1 X79.178 Y102.420 E1.83127
G1 X79.460 Y102.166 E0.01191
G1 X120.607 Y143.314 E1.83020
G1 X120.865 Y143.036 E0.01190
G1 X79.741 Y101.913 E1.82913
G1 X80.023 Y101.659 E0.01191
G1 X121.122 Y142.759 E1.82806
G1 X121.366 Y142.468 E0.01194
G1 X80.304 Y101.406 E1.82640
G1 X80.597 Y101.164 E0.01195
G1 X121.608 Y142.175 E1.82413
G1 X121.849 Y141.881 E0.01195
G1 X80.894 Y100.926 E1.82163
M73 Q2 S143
G1 X81.192 Y100.689 E0.01197
G1 X122.090 Y141.587 E1.81913
M73 P2 R143
G1 X122.328 Y141.290 E0.01197
G1 X81.489 Y100.452 E1.81645
G1 X81.789 Y100.216 E0.01198
G1 X122.553 Y140.980 E1.81315
G1 X122.778 Y140.670 E0.01204
G1 X82.103 Y99.996 E1.80916
G1 X82.418 Y99.775 E0.01208
G1 X123.003 Y140.360 E1.80518
G1 X123.228 Y140.051 E0.01204
G1 X82.733 Y99.555 E1.80119
G1 X83.047 Y99.335 E0.01208
G1 X123.442 Y139.729 E1.79670
G1 X123.650 Y139.403 E0.01218
G1 X83.368 Y99.120 E1.79173
