; generated by PrusaSlicer 2.2.0+ on 2020-11-09 at 23:21:46 UTC

; 

; external perimeters extrusion width = 0.45mm
; perimeters extrusion width = 0.45mm
; infill extrusion width = 0.45mm
; solid infill extrusion width = 0.45mm
; top infill extrusion width = 0.40mm
; support material extrusion width = 0.35mm
; first layer extrusion width = 0.42mm

M73 P0 R114
M73 Q0 S115
M201 X1000 Y1000 Z200 E5000 ; sets maximum accelerations, mm/sec^2
M203 X200 Y200 Z12 E120 ; sets maximum feedrates, mm/sec
M204 P1250 R1250 T1250 ; sets acceleration (P, T) and retract acceleration (R), mm/sec^2
M205 X8.00 Y8.00 Z0.40 E4.50 ; sets the jerk limits, mm/sec
M205 S0 T0 ; sets the minimum extruding and travel feed rate, mm/sec
M107
M862.3 P "MK3S" ; printer model check
M862.1 P0.4 ; nozzle diameter check
M115 U3.9.1 ; tell printer latest fw version
G90 ; use absolute coordinates
M83 ; extruder relative mode
M104 S215 ; set extruder temp
M140 S60 ; set bed temp
M190 S60 ; wait for bed temp
M109 S215 ; wait for extruder temp
G28 W ; home all without mesh bed level
G80 ; mesh bed leveling
G1 Y-3.0 F1000.0 ; go outside print area
G92 E0.0
G1 X60.0 E9.0 F1000.0 ; intro line
M73 Q0 S115
M73 P0 R114
G1 X100.0 E12.5 F1000.0 ; intro line
G92 E0.0
M221 S95

; Don't change E values below. Excessive value can damage the printer.
M907 E430 ; set extruder motor current
G21 ; set units to millimeters
G90 ; use absolute coordinates
M83 ; use relative distances for extrusion
M900 K0.05 ; Filament gcode LA 1.5
M900 K30 ; Filament gcode LA 1.0
;BEFORE_LAYER_CHANGE
G92 E0.0
;0.2


G1 E-0.80000 F2100.00000
G1 Z0.600 F10800.000
;AFTER_LAYER_CHANGE
;0.2
G1 X92.180 Y87.371
G1 Z0.200
G1 E0.80000 F2100.00000
M204 S1000
G1 F1200.000
G1 X94.224 Y85.389 E0.08931
G1 X95.463 Y84.386 E0.04996
G1 X96.775 Y83.462 E0.05030
G1 X99.247 Y82.034 E0.08953
G1 X100.696 Y81.363 E0.05008
G1 X102.183 Y80.790 E0.04993
G1 X104.937 Y80.006 E0.08978
G1 X106.502 Y79.709 E0.04995
G1 X108.189 Y79.508 E0.05329
G1 X110.832 Y79.425 E0.08291
G1 X171.013 Y80.026 E1.88702
G1 X172.931 Y80.112 E0.06021
G1 X174.904 Y80.317 E0.06219
G1 X176.759 Y80.624 E0.05896
G1 X178.798 Y81.090 E0.06557
G1 X180.602 Y81.618 E0.05892
G1 X182.436 Y82.275 E0.06111
G1 X184.229 Y83.041 E0.06111
G1 X185.982 Y83.919 E0.06147
G1 X187.657 Y84.886 E0.06064
G1 X189.230 Y85.923 E0.05908
G1 X190.900 Y87.175 E0.06545
G1 X192.333 Y88.391 E0.05892
G1 X193.741 Y89.738 E0.06111
G1 X195.065 Y91.164 E0.06099
G1 X196.260 Y92.616 E0.05896
G1 X197.486 Y94.304 E0.06541
G1 X198.500 Y95.892 E0.05908
G1 X199.447 Y97.591 E0.06099
G1 X200.322 Y99.415 E0.06342
G1 X201.034 Y101.154 E0.05892
G1 X201.664 Y102.999 E0.06111
G1 X202.181 Y104.874 E0.06099
G1 X202.574 Y106.717 E0.05908
G1 X202.885 Y108.781 E0.06545
G1 X203.052 Y110.653 E0.05892
G1 X203.111 Y112.601 E0.06111
G1 X203.052 Y114.546 E0.06099
G1 X202.885 Y116.419 E0.05896
G1 X202.574 Y118.482 E0.06541
G1 X202.181 Y120.325 E0.05908
G1 X201.664 Y122.200 E0.06099
G1 X201.034 Y124.044 E0.06111
G1 X200.322 Y125.785 E0.05896
G1 X199.426 Y127.648 E0.06481
G1 X198.497 Y129.313 E0.05980
G1 X197.409 Y131.009 E0.06318
G1 X196.303 Y132.529 E0.05892
G1 X195.112 Y133.979 E0.05884
G1 X193.787 Y135.414 E0.06123
G1 X192.334 Y136.808 E0.06314
G1 X190.844 Y138.071 E0.06123
G1 X189.281 Y139.242 E0.06123
G1 X187.598 Y140.349 E0.06318
G1 X185.970 Y141.288 E0.05892
G1 X184.292 Y142.128 E0.05884
G1 X182.497 Y142.900 E0.06123
G1 X180.603 Y143.582 E0.06314
G1 X178.728 Y144.130 E0.06123
G1 X176.824 Y144.564 E0.06123
G1 X174.836 Y144.891 E0.06318
G1 X172.967 Y145.086 E0.05892
G1 X171.092 Y145.171 E0.05884
G1 X169.124 Y145.146 E0.06171
G1 X167.131 Y144.999 E0.06266
G1 X165.199 Y144.737 E0.06111
G1 X163.287 Y144.361 E0.06111
G1 X161.426 Y143.878 E0.06028
G1 X103.536 Y127.627 E1.88526
G1 X100.708 Y126.629 E0.09404
G1 X98.062 Y125.317 E0.09260
G1 X96.712 Y124.485 E0.04972
G1 X95.421 Y123.568 E0.04964
G1 X93.251 Y121.711 E0.08957
G1 X92.120 Y120.553 E0.05076
G1 X91.070 Y119.319 E0.05078
G1 X89.427 Y116.997 E0.08921
G1 X88.634 Y115.630 E0.04954
G1 X87.916 Y114.180 E0.05073
G1 X86.886 Y111.518 E0.08950
G1 X86.445 Y109.983 E0.05008
G1 X86.108 Y108.422 E0.05005
G1 X85.757 Y105.583 E0.08971
G1 X85.706 Y103.912 E0.05241
G1 X85.881 Y101.059 E0.08964
G1 X86.123 Y99.475 E0.05022
G1 X86.467 Y97.923 E0.04986
G1 X87.333 Y95.199 E0.08962
G1 X87.952 Y93.726 E0.05010
G1 X88.672 Y92.288 E0.05041
G1 X90.171 Y89.867 E0.08928
G1 X91.131 Y88.589 E0.05010
G1 X92.141 Y87.417 E0.04851
G1 F8640.000
G1 X94.224 Y85.389 E-0.67148
G1 X94.523 Y85.147 E-0.08852
G1 E-0.04000 F2100.00000
G1 Z0.800 F10800.000
G1 X171.867 Y120.603
G1 Z0.200
G1 E0.80000 F2100.00000
G1 F1200.000
G1 X172.326 Y119.747 E0.03045
G1 X172.888 Y118.954 E0.03045
G1 X173.542 Y118.237 E0.03045
G1 X174.280 Y117.605 E0.03045
G1 X175.089 Y117.068 E0.03045
G1 X175.959 Y116.635 E0.03045
G1 X176.875 Y116.313 E0.03045
G1 X177.823 Y116.105 E0.03045
G1 X178.633 Y116.030 E0.02550
G1 X178.791 Y116.015 E0.00495
G1 X179.761 Y116.045 E0.03045
G1 X180.721 Y116.194 E0.03045
G1 X181.655 Y116.460 E0.03045
G1 X182.550 Y116.838 E0.03045
G1 X183.391 Y117.324 E0.03045
G1 X184.166 Y117.909 E0.03045
G1 X184.863 Y118.585 E0.03045
G1 X185.472 Y119.342 E0.03045
G1 X185.983 Y120.168 E0.03045
G1 X186.389 Y121.050 E0.03045
G1 X186.684 Y121.976 E0.03045
G1 X186.862 Y122.931 E0.03045
G1 X186.922 Y123.900 E0.03045
G1 X186.862 Y124.869 E0.03045
G1 X186.684 Y125.824 E0.03045
G1 X186.389 Y126.750 E0.03045
G1 X185.983 Y127.632 E0.03045
G1 X185.472 Y128.458 E0.03045
G1 X184.863 Y129.214 E0.03045
G1 X184.166 Y129.891 E0.03045
G1 X183.391 Y130.476 E0.03045
G1 X182.550 Y130.962 E0.03045
G1 X181.655 Y131.340 E0.03045
G1 X180.721 Y131.606 E0.03045
G1 X179.761 Y131.755 E0.03045
G1 X178.791 Y131.785 E0.03045
G1 X177.823 Y131.695 E0.03045
G1 X176.875 Y131.487 E0.03045
G1 X175.959 Y131.165 E0.03045
G1 X175.089 Y130.732 E0.03045
G1 X174.280 Y130.195 E0.03045
G1 X173.542 Y129.563 E0.03045
G1 X172.888 Y128.846 E0.03045
G1 X172.326 Y128.053 E0.03045
G1 X171.867 Y127.197 E0.03045
G1 X171.516 Y126.291 E0.03045
G1 X171.279 Y125.349 E0.03045
G1 X171.160 Y124.386 E0.03045
G1 X171.160 Y123.414 E0.03045
G1 X171.279 Y122.450 E0.03045
G1 X171.516 Y121.509 E0.03045
G1 X171.845 Y120.659 E0.02857
G1 X172.197 Y120.795 F10800.000
G1 F1200.000
G1 X172.648 Y119.946 E0.03014
G1 X173.182 Y119.191 E0.02899
G1 X173.805 Y118.508 E0.02899
G1 X174.507 Y117.906 E0.02899
G1 X175.278 Y117.395 E0.02899
G1 X176.106 Y116.983 E0.02899
G1 X176.978 Y116.676 E0.02899
G1 X177.881 Y116.478 E0.02899
G1 X178.802 Y116.393 E0.02899
G1 X179.726 Y116.421 E0.02899
G1 X180.640 Y116.563 E0.02899
G1 X181.530 Y116.816 E0.02899
G1 X182.381 Y117.177 E0.02899
G1 X183.182 Y117.639 E0.02899
G1 X183.920 Y118.196 E0.02899
G1 X184.584 Y118.840 E0.02899
G1 X185.164 Y119.560 E0.02899
G1 X185.651 Y120.347 E0.02899
G1 X186.037 Y121.187 E0.02899
G1 X186.317 Y122.068 E0.02899
G1 X186.487 Y122.977 E0.02899
G1 X186.544 Y123.900 E0.02899
G1 X186.487 Y124.823 E0.02899
G1 X186.317 Y125.732 E0.02899
G1 X186.037 Y126.613 E0.02899
G1 X185.651 Y127.453 E0.02899
G1 X185.164 Y128.239 E0.02899
G1 X184.584 Y128.960 E0.02899
G1 X183.920 Y129.604 E0.02899
G1 X183.182 Y130.161 E0.02899
G1 X182.381 Y130.623 E0.02899
G1 X181.530 Y130.984 E0.02899
G1 X180.640 Y131.237 E0.02899
G1 X179.726 Y131.379 E0.02899
G1 X178.802 Y131.407 E0.02899
G1 X177.881 Y131.322 E0.02899
G1 X176.978 Y131.124 E0.02899
G1 X176.106 Y130.817 E0.02899
G1 X175.278 Y130.404 E0.02899
G1 X174.507 Y129.894 E0.02899
G1 X173.805 Y129.292 E0.02899
G1 X173.182 Y128.609 E0.02899
G1 X172.648 Y127.854 E0.02899
G1 X172.210 Y127.039 E0.02899
G1 X171.876 Y126.177 E0.02899
G1 X171.651 Y125.280 E0.02899
G1 X171.537 Y124.362 E0.02899
G1 X171.537 Y123.438 E0.02899
G1 X171.651 Y122.520 E0.02899
G1 X171.876 Y121.623 E0.02899
G1 X172.175 Y120.851 E0.02596
G1 X171.965 Y120.469 F10800.000
G1 F8640.000
G1 X172.648 Y119.946 E-0.23571
G1 X173.182 Y119.191 E-0.21352
G1 X173.805 Y118.508 E-0.21353
G1 X174.125 Y118.234 E-0.09724
G1 E-0.04000 F2100.00000
G1 Z0.800 F10800.000
G1 X167.677 Y122.177
G1 Z0.200
G1 E0.80000 F2100.00000
G1 F1200.000
G1 X167.841 Y122.856 E0.02192
G1 X167.924 Y123.550 E0.02192
G1 X167.924 Y124.250 E0.02192
G1 X167.841 Y124.944 E0.02192
G1 X167.677 Y125.623 E0.02192
G1 X167.555 Y125.951 E0.01096
G1 X167.434 Y126.279 E0.01096
G1 X167.114 Y126.901 E0.02192
G1 X166.724 Y127.481 E0.02192
G1 X166.267 Y128.010 E0.02192
G1 X165.752 Y128.482 E0.02192
G1 X165.184 Y128.890 E0.02192
G1 X164.571 Y129.227 E0.02192
G1 X163.923 Y129.490 E0.02192
G1 X163.249 Y129.674 E0.02192
G1 X162.557 Y129.778 E0.02192
G1 X161.859 Y129.798 E0.02192
G1 X161.162 Y129.736 E0.02192
G1 X160.478 Y129.592 E0.02192
G1 X159.816 Y129.368 E0.02192
G1 X159.184 Y129.068 E0.02192
G1 X158.593 Y128.694 E0.02192
G1 X158.050 Y128.254 E0.02192
G1 X157.563 Y127.752 E0.02192
G1 X157.139 Y127.197 E0.02192
G1 X156.784 Y126.595 E0.02192
G1 X156.502 Y125.955 E0.02192
G1 X156.298 Y125.286 E0.02192
G1 X156.174 Y124.598 E0.02192
G1 X156.132 Y123.900 E0.02192
G1 X156.174 Y123.202 E0.02192
G1 X156.298 Y122.514 E0.02192
G1 X156.502 Y121.845 E0.02192
G1 X156.784 Y121.205 E0.02192
G1 X156.961 Y120.904 E0.01096
G1 X157.139 Y120.603 E0.01096
G1 X157.563 Y120.048 E0.02192
G1 X158.050 Y119.546 E0.02192
G1 X158.593 Y119.105 E0.02192
G1 X159.184 Y118.732 E0.02192
G1 X159.816 Y118.432 E0.02192
G1 X160.478 Y118.208 E0.02192
G1 X161.162 Y118.064 E0.02192
G1 X161.859 Y118.002 E0.02192
G1 X162.557 Y118.022 E0.02192
G1 X163.249 Y118.126 E0.02192
G1 X163.923 Y118.310 E0.02192
G1 X164.571 Y118.573 E0.02192
G1 X165.184 Y118.910 E0.02192
G1 X165.752 Y119.318 E0.02192
G1 X166.267 Y119.790 E0.02192
G1 X166.724 Y120.319 E0.02192
G1 X167.114 Y120.899 E0.02192
G1 X167.434 Y121.521 E0.02192
G1 X167.656 Y122.120 E0.02004
G1 X167.303 Y122.252 F10800.000
G1 F1200.000
G1 X167.470 Y122.923 E0.02169
G1 X167.547 Y123.573 E0.02052
G1 X167.547 Y124.227 E0.02052
G1 X167.470 Y124.877 E0.02052
G1 X167.316 Y125.513 E0.02052
G1 X167.088 Y126.127 E0.02052
G1 X166.789 Y126.709 E0.02052
G1 X166.424 Y127.251 E0.02052
G1 X165.996 Y127.747 E0.02052
G1 X165.514 Y128.189 E0.02052
G1 X164.982 Y128.570 E0.02052
G1 X164.409 Y128.886 E0.02052
G1 X163.802 Y129.132 E0.02052
G1 X163.171 Y129.305 E0.02052
G1 X162.524 Y129.401 E0.02052
G1 X161.870 Y129.421 E0.02052
G1 X161.218 Y129.363 E0.02052
G1 X160.578 Y129.228 E0.02052
G1 X159.958 Y129.018 E0.02052
G1 X159.367 Y128.737 E0.02052
G1 X158.814 Y128.388 E0.02052
G1 X158.305 Y127.975 E0.02052
G1 X157.850 Y127.506 E0.02052
G1 X157.452 Y126.986 E0.02052
G1 X157.120 Y126.422 E0.02052
G1 X156.856 Y125.823 E0.02052
G1 X156.665 Y125.197 E0.02052
G1 X156.549 Y124.553 E0.02052
G1 X156.510 Y123.900 E0.02052
G1 X156.549 Y123.247 E0.02052
G1 X156.665 Y122.603 E0.02052
G1 X156.856 Y121.977 E0.02052
G1 X157.120 Y121.378 E0.02052
G1 X157.286 Y121.096 E0.01026
G1 X157.452 Y120.814 E0.01026
G1 X157.850 Y120.294 E0.02052
G1 X158.305 Y119.825 E0.02052
G1 X158.814 Y119.412 E0.02052
G1 X159.367 Y119.063 E0.02052
G1 X159.958 Y118.782 E0.02052
G1 X160.578 Y118.572 E0.02052
G1 X161.218 Y118.437 E0.02052
G1 X161.870 Y118.379 E0.02052
G1 X162.524 Y118.399 E0.02052
G1 X163.171 Y118.495 E0.02052
G1 X163.802 Y118.668 E0.02052
G1 X164.409 Y118.914 E0.02052
G1 X164.982 Y119.230 E0.02052
G1 X165.514 Y119.611 E0.02052
G1 X165.996 Y120.053 E0.02052
G1 X166.424 Y120.548 E0.02052
G1 X166.789 Y121.091 E0.02052
G1 X167.088 Y121.673 E0.02052
G1 X167.282 Y122.195 E0.01746
G1 X167.693 Y122.340 F10800.000
G1 F8640.000
G1 X167.470 Y122.923 E-0.17351
G1 X167.547 Y123.573 E-0.15110
G1 X167.547 Y124.227 E-0.15110
G1 X167.470 Y124.877 E-0.15110
G1 X167.334 Y125.438 E-0.13318
G1 E-0.04000 F2100.00000
G1 Z0.800 F10800.000
G1 X161.327 Y140.521
G1 Z0.200
G1 E0.80000 F2100.00000
G1 F1200.000
G1 X160.612 Y140.289 E0.02360
G1 X158.974 Y139.646 E0.05518
G1 X157.377 Y138.906 E0.05518
G1 X155.827 Y138.072 E0.05518
G1 X154.330 Y137.147 E0.05518
G1 X152.891 Y136.134 E0.05518
G1 X151.515 Y135.037 E0.05518
G1 X150.208 Y133.859 E0.05518
G1 X148.973 Y132.606 E0.05518
G1 X147.815 Y131.280 E0.05518
G1 X146.738 Y129.888 E0.05518
G1 X145.747 Y128.434 E0.05518
G1 X144.844 Y126.924 E0.05518
G1 X144.034 Y125.362 E0.05518
G1 X143.318 Y123.754 E0.05518
G1 X142.700 Y122.106 E0.05518
G1 X142.181 Y120.425 E0.05518
G1 X141.764 Y118.715 E0.05518
G1 X141.449 Y116.984 E0.05518
G1 X141.239 Y115.236 E0.05518
G1 X141.134 Y113.480 E0.05518
G1 X141.134 Y111.720 E0.05518
G1 X141.239 Y109.963 E0.05518
G1 X141.449 Y108.216 E0.05518
G1 X141.764 Y106.485 E0.05518
G1 X142.181 Y104.775 E0.05518
G1 X142.700 Y103.094 E0.05518
G1 X143.318 Y101.446 E0.05518
G1 X144.034 Y99.838 E0.05518
G1 X144.844 Y98.276 E0.05518
G1 X145.747 Y96.766 E0.05518
G1 X146.738 Y95.312 E0.05515
G1 X147.870 Y93.857 E0.05782
G1 X148.973 Y92.594 E0.05256
G1 X150.208 Y91.341 E0.05518
G1 X151.515 Y90.163 E0.05518
G1 X152.891 Y89.066 E0.05515
G1 X154.401 Y88.009 E0.05782
G1 X155.827 Y87.128 E0.05256
G1 X157.377 Y86.294 E0.05518
G1 X158.974 Y85.554 E0.05518
G1 X160.612 Y84.911 E0.05518
G1 X162.285 Y84.368 E0.05518
G1 X163.989 Y83.925 E0.05518
G1 X165.715 Y83.585 E0.05518
G1 X167.459 Y83.349 E0.05518
G1 X169.213 Y83.217 E0.05515
G1 X171.057 Y83.194 E0.05782
G1 X172.731 Y83.270 E0.05256
G1 X174.482 Y83.454 E0.05518
G1 X176.218 Y83.742 E0.05518
G1 X177.933 Y84.133 E0.05518
G1 X179.622 Y84.627 E0.05518
G1 X181.279 Y85.221 E0.05518
G1 X182.897 Y85.912 E0.05518
G1 X184.471 Y86.699 E0.05518
G1 X185.995 Y87.579 E0.05518
G1 X187.464 Y88.549 E0.05518
G1 X188.871 Y89.604 E0.05515
G1 X190.275 Y90.800 E0.05782
G1 X191.486 Y91.958 E0.05256
G1 X192.683 Y93.248 E0.05518
G1 X193.801 Y94.608 E0.05518
G1 X194.835 Y96.031 E0.05518
G1 X195.783 Y97.514 E0.05518
G1 X196.640 Y99.051 E0.05518
G1 X197.403 Y100.637 E0.05518
G1 X198.071 Y102.265 E0.05518
G1 X198.639 Y103.930 E0.05518
G1 X199.107 Y105.627 E0.05518
G1 X199.473 Y107.348 E0.05518
G1 X199.736 Y109.088 E0.05518
G1 X199.893 Y110.841 E0.05518
G1 X199.946 Y112.600 E0.05518
G1 X199.893 Y114.359 E0.05518
G1 X199.736 Y116.112 E0.05518
G1 X199.473 Y117.852 E0.05518
G1 X199.107 Y119.573 E0.05518
G1 X198.639 Y121.269 E0.05518
G1 X198.071 Y122.934 E0.05515
G1 X197.367 Y124.638 E0.05782
G1 X196.640 Y126.149 E0.05256
G1 X195.783 Y127.686 E0.05518
G1 X194.835 Y129.169 E0.05518
G1 X193.801 Y130.592 E0.05518
G1 X192.683 Y131.952 E0.05518
G1 X191.486 Y133.242 E0.05518
G1 X190.214 Y134.458 E0.05518
G1 X188.872 Y135.596 E0.05518
G1 X187.464 Y136.651 E0.05518
G1 X185.995 Y137.621 E0.05518
G1 X184.471 Y138.501 E0.05518
G1 X182.897 Y139.288 E0.05518
G1 X181.279 Y139.979 E0.05518
G1 X179.623 Y140.573 E0.05515
G1 X177.852 Y141.085 E0.05782
G1 X176.218 Y141.458 E0.05256
G1 X174.482 Y141.746 E0.05518
G1 X172.731 Y141.930 E0.05518
G1 X170.973 Y142.009 E0.05518
G1 X169.214 Y141.983 E0.05518
G1 X167.459 Y141.851 E0.05518
G1 X165.715 Y141.615 E0.05518
G1 X163.989 Y141.275 E0.05518
G1 X162.285 Y140.832 E0.05518
G1 X161.385 Y140.540 E0.02970
G1 X161.268 Y140.898 F10800.000
G1 F1200.000
G1 X160.484 Y140.644 E0.02583
G1 X158.825 Y139.993 E0.05588
G1 X157.208 Y139.243 E0.05588
G1 X155.639 Y138.399 E0.05588
G1 X154.122 Y137.462 E0.05588
G1 X152.665 Y136.436 E0.05588
G1 X151.271 Y135.325 E0.05588
G1 X149.947 Y134.132 E0.05588
G1 X148.696 Y132.862 E0.05588
G1 X147.523 Y131.520 E0.05588
G1 X146.433 Y130.110 E0.05588
G1 X145.429 Y128.637 E0.05588
G1 X144.515 Y127.107 E0.05588
G1 X143.694 Y125.525 E0.05588
G1 X142.969 Y123.897 E0.05588
G1 X142.343 Y122.228 E0.05588
G1 X141.817 Y120.525 E0.05588
G1 X141.395 Y118.794 E0.05588
G1 X141.076 Y117.040 E0.05588
G1 X140.864 Y115.270 E0.05588
G1 X140.757 Y113.491 E0.05588
G1 X140.757 Y111.709 E0.05588
G1 X140.864 Y109.930 E0.05588
G1 X141.076 Y108.160 E0.05588
G1 X141.395 Y106.406 E0.05588
G1 X141.817 Y104.675 E0.05588
G1 X142.343 Y102.972 E0.05588
G1 X142.969 Y101.303 E0.05588
G1 X143.694 Y99.675 E0.05588
G1 X144.515 Y98.093 E0.05588
G1 X145.429 Y96.563 E0.05588
G1 X146.433 Y95.090 E0.05588
G1 X147.579 Y93.617 E0.05852
G1 X148.696 Y92.338 E0.05325
G1 X149.947 Y91.068 E0.05588
G1 X151.271 Y89.875 E0.05588
G1 X152.665 Y88.764 E0.05588
G1 X154.194 Y87.694 E0.05852
