; generated by PrusaSlicer 2.2.0+ on 2020-11-10 at 01:55:20 UTC

; 

; external perimeters extrusion width = 0.45mm
; perimeters extrusion width = 0.45mm
; infill extrusion width = 0.45mm
; solid infill extrusion width = 0.45mm
; top infill extrusion width = 0.40mm
; support material extrusion width = 0.35mm
; first layer extrusion width = 0.42mm

M73 P0 R142
M73 Q0 S142
M201 X1000 Y1000 Z200 E5000 ; sets maximum accelerations, mm/sec^2
M203 X200 Y200 Z12 E120 ; sets maximum feedrates, mm/sec
M204 P1250 R1250 T1250 ; sets acceleration (P, T) and retract acceleration (R), mm/sec^2
M205 X8.00 Y8.00 Z0.40 E4.50 ; sets the jerk limits, mm/sec
M205 S0 T0 ; sets the minimum extruding and travel feed rate, mm/sec
M107
M862.3 P "MK3S" ; printer model check
M862.1 P0.4 ; nozzle diameter check
M115 U3.9.1 ; tell printer latest fw version
G90 ; use absolute coordinates
M83 ; extruder relative mode
M104 S215 ; set extruder temp
M140 S60 ; set bed temp
M190 S60 ; wait for bed temp
M109 S215 ; wait for extruder temp
G28 W ; home all without mesh bed level
G80 ; mesh bed leveling
G1 Y-3.0 F1000.0 ; go outside print area
G92 E0.0
G1 X60.0 E9.0 F1000.0 ; intro line
M73 Q0 S142
M73 P0 R142
G1 X100.0 E12.5 F1000.0 ; intro line
G92 E0.0
M221 S95

; Don't change E values below. Excessive value can damage the printer.
M907 E430 ; set extruder motor current
G21 ; set units to millimeters
G90 ; use absolute coordinates
M83 ; use relative distances for extrusion
M900 K0.05 ; Filament gcode LA 1.5
M900 K30 ; Filament gcode LA 1.0
;BEFORE_LAYER_CHANGE
G92 E0.0
;0.2


G1 E-0.80000 F2100.00000
G1 Z0.600 F10800.000
;AFTER_LAYER_CHANGE
;0.2
G1 X133.094 Y57.463
G1 Z0.200
G1 E0.80000 F2100.00000
M204 S1000
G1 F1200.000
G1 X133.790 Y57.851 E0.02496
G1 X174.271 Y91.068 E1.64187
G1 X176.518 Y93.178 E0.09665
G1 X178.472 Y95.538 E0.09606
G1 X180.144 Y98.169 E0.09773
G1 X180.844 Y99.544 E0.04841
G1 X181.489 Y101.047 E0.05127
G1 X182.389 Y103.820 E0.09140
G1 X182.731 Y105.329 E0.04853
G1 X182.986 Y106.917 E0.05043
G1 X183.132 Y108.458 E0.04853
G1 X183.132 Y111.552 E0.09701
G1 X182.986 Y113.089 E0.04841
G1 X182.730 Y114.682 E0.05058
G1 X182.389 Y116.188 E0.04841
G1 X181.486 Y118.969 E0.09168
G1 X180.846 Y120.458 E0.05082
G1 X180.141 Y121.842 E0.04871
G1 X179.308 Y123.244 E0.05115
G1 X177.540 Y125.671 E0.09412
G1 X176.468 Y126.881 E0.05070
G1 X174.272 Y128.939 E0.09436
G1 X172.989 Y129.930 E0.05082
G1 X170.446 Y131.539 E0.09436
G1 X168.987 Y132.278 E0.05127
G1 X166.261 Y133.356 E0.09190
G1 X164.684 Y133.816 E0.05151
G1 X108.838 Y147.263 E1.80107
G1 X107.000 Y147.681 E0.05909
G1 X105.145 Y147.990 E0.05896
G1 X103.069 Y148.208 E0.06545
G1 X101.192 Y148.291 E0.05892
G1 X99.243 Y148.262 E0.06111
G1 X97.303 Y148.117 E0.06099
G1 X95.439 Y147.865 E0.05896
G1 X93.392 Y147.462 E0.06541
G1 X91.569 Y146.987 E0.05908
G1 X89.719 Y146.386 E0.06099
G1 X87.837 Y145.644 E0.06342
G1 X86.132 Y144.853 E0.05892
G1 X84.456 Y143.952 E0.05968
G1 X82.700 Y142.866 E0.06473
G1 X81.164 Y141.783 E0.05892
G1 X79.640 Y140.568 E0.06111
G1 X78.195 Y139.266 E0.06099
G1 X76.871 Y137.924 E0.05908
G1 X75.498 Y136.352 E0.06545
G1 X74.350 Y134.865 E0.05892
G1 X73.252 Y133.255 E0.06111
G1 X72.254 Y131.585 E0.06099
G1 X71.385 Y129.913 E0.05908
G1 X70.538 Y128.010 E0.06529
G1 X69.877 Y126.246 E0.05908
G1 X69.303 Y124.387 E0.06099
G1 X68.827 Y122.421 E0.06342
G1 X68.492 Y120.572 E0.05892
G1 X68.260 Y118.637 E0.06111
G1 X68.143 Y116.695 E0.06099
G1 X68.142 Y114.811 E0.05908
G1 X68.267 Y112.727 E0.06545
G1 X68.493 Y110.861 E0.05892
G1 X68.841 Y108.943 E0.06111
G1 X69.302 Y107.054 E0.06099
G1 X69.855 Y105.256 E0.05896
G1 X70.588 Y103.303 E0.06541
G1 X71.355 Y101.582 E0.05908
G1 X72.248 Y99.862 E0.06076
G1 X73.251 Y98.182 E0.06135
G1 X74.311 Y96.624 E0.05908
G1 X75.589 Y94.973 E0.06545
G1 X76.826 Y93.559 E0.05892
G1 X78.194 Y92.170 E0.06111
G1 X79.639 Y90.869 E0.06099
G1 X81.112 Y89.693 E0.05908
G1 X121.237 Y60.869 E1.54904
G1 X121.863 Y60.552 E0.02201
G1 X131.575 Y57.440 E0.31977
G1 X132.306 Y57.327 E0.02319
G1 X133.035 Y57.453 E0.02320
G1 F8640.000
G1 X133.790 Y57.851 E-0.19695
G1 X135.675 Y59.398 E-0.56305
G1 E-0.04000 F2100.00000
G1 Z0.800 F10800.000
G1 X114.643 Y89.817
G1 Z0.200
G1 E0.80000 F2100.00000
G1 F1200.000
G1 X116.167 Y90.697 E0.05518
G1 X117.636 Y91.667 E0.05518
G1 X119.043 Y92.722 E0.05515
G1 X120.447 Y93.918 E0.05782
G1 X121.658 Y95.076 E0.05256
G1 X122.855 Y96.366 E0.05518
G1 X123.973 Y97.725 E0.05518
G1 X124.490 Y98.437 E0.02759
G1 X125.007 Y99.149 E0.02759
G1 X125.955 Y100.632 E0.05518
G1 X126.812 Y102.169 E0.05518
G1 X127.575 Y103.755 E0.05518
G1 X128.243 Y105.383 E0.05518
G1 X128.812 Y107.048 E0.05518
G1 X129.280 Y108.745 E0.05518
G1 X129.646 Y110.466 E0.05518
G1 X129.908 Y112.206 E0.05518
G1 X130.066 Y113.959 E0.05518
G1 X130.118 Y115.718 E0.05518
G1 X130.066 Y117.477 E0.05518
G1 X129.908 Y119.229 E0.05518
G1 X129.646 Y120.970 E0.05518
G1 X129.280 Y122.691 E0.05518
G1 X128.812 Y124.387 E0.05518
G1 X128.243 Y126.052 E0.05515
G1 X127.539 Y127.756 E0.05782
G1 X126.812 Y129.266 E0.05256
G1 X125.955 Y130.803 E0.05518
G1 X125.007 Y132.286 E0.05518
G1 X123.973 Y133.710 E0.05518
G1 X122.855 Y135.069 E0.05518
G1 X122.257 Y135.714 E0.02759
G1 X121.658 Y136.359 E0.02759
G1 X120.387 Y137.576 E0.05518
G1 X119.044 Y138.713 E0.05518
G1 X117.636 Y139.769 E0.05518
G1 X116.167 Y140.738 E0.05518
G1 X114.643 Y141.618 E0.05518
G1 X113.069 Y142.406 E0.05518
G1 X111.451 Y143.097 E0.05518
G1 X109.795 Y143.691 E0.05515
G1 X108.024 Y144.203 E0.05782
G1 X106.390 Y144.576 E0.05256
G1 X104.654 Y144.864 E0.05518
G1 X102.904 Y145.048 E0.05518
G1 X101.146 Y145.127 E0.05518
G1 X99.386 Y145.101 E0.05518
G1 X97.631 Y144.969 E0.05518
G1 X95.887 Y144.733 E0.05518
G1 X94.161 Y144.393 E0.05518
G1 X92.458 Y143.950 E0.05518
G1 X90.784 Y143.406 E0.05518
G1 X89.146 Y142.763 E0.05518
G1 X87.549 Y142.024 E0.05518
G1 X85.999 Y141.190 E0.05518
G1 X84.502 Y140.265 E0.05518
G1 X83.063 Y139.252 E0.05518
G1 X81.688 Y138.155 E0.05518
G1 X80.380 Y136.977 E0.05518
G1 X79.145 Y135.723 E0.05518
G1 X77.987 Y134.398 E0.05518
G1 X76.910 Y133.006 E0.05518
G1 X75.919 Y131.552 E0.05518
G1 X75.016 Y130.041 E0.05518
G1 X74.206 Y128.479 E0.05518
G1 X73.490 Y126.872 E0.05518
G1 X72.872 Y125.224 E0.05518
G1 X72.353 Y123.543 E0.05518
G1 X71.936 Y121.833 E0.05518
G1 X71.622 Y120.101 E0.05518
G1 X71.411 Y118.354 E0.05518
G1 X71.306 Y116.598 E0.05518
G1 X71.306 Y114.838 E0.05518
G1 X71.411 Y113.081 E0.05518
G1 X71.570 Y111.759 E0.04175
G1 X71.622 Y111.334 E0.01342
G1 X71.936 Y109.603 E0.05518
G1 X72.353 Y107.893 E0.05518
G1 X72.872 Y106.211 E0.05518
G1 X73.490 Y104.564 E0.05518
G1 X74.206 Y102.956 E0.05518
G1 X75.016 Y101.394 E0.05518
G1 X75.919 Y99.883 E0.05518
G1 X76.910 Y98.430 E0.05515
G1 X78.042 Y96.974 E0.05782
G1 X79.145 Y95.712 E0.05256
G1 X80.380 Y94.459 E0.05518
G1 X81.688 Y93.281 E0.05518
G1 X83.063 Y92.184 E0.05515
G1 X84.573 Y91.127 E0.05782
G1 X85.999 Y90.246 E0.05256
G1 X87.549 Y89.412 E0.05518
G1 X89.146 Y88.672 E0.05518
G1 X90.784 Y88.029 E0.05518
G1 X92.458 Y87.485 E0.05518
G1 X94.161 Y87.043 E0.05518
G1 X95.887 Y86.703 E0.05518
G1 X97.631 Y86.466 E0.05518
G1 X99.385 Y86.335 E0.05515
G1 X101.229 Y86.312 E0.05782
G1 X102.904 Y86.387 E0.05256
G1 X104.654 Y86.571 E0.05518
G1 X106.390 Y86.860 E0.05518
G1 X108.105 Y87.251 E0.05518
G1 X109.795 Y87.745 E0.05518
G1 X111.451 Y88.338 E0.05518
G1 X113.069 Y89.030 E0.05518
G1 X114.590 Y89.790 E0.05330
G1 X114.758 Y89.453 F10800.000
G1 F1200.000
G1 X116.366 Y90.376 E0.05812
G1 X117.853 Y91.358 E0.05588
G1 X119.279 Y92.427 E0.05588
G1 X120.700 Y93.638 E0.05852
G1 X121.927 Y94.811 E0.05325
G1 X123.140 Y96.118 E0.05588
G1 X124.272 Y97.495 E0.05588
G1 X124.795 Y98.216 E0.02794
G1 X125.319 Y98.937 E0.02794
G1 X126.279 Y100.439 E0.05588
G1 X127.147 Y101.995 E0.05588
G1 X127.920 Y103.601 E0.05588
G1 X128.596 Y105.250 E0.05588
G1 X129.172 Y106.937 E0.05588
G1 X129.646 Y108.655 E0.05588
G1 X130.017 Y110.399 E0.05588
G1 X130.282 Y112.161 E0.05588
G1 X130.442 Y113.936 E0.05588
G1 X130.495 Y115.718 E0.05588
G1 X130.442 Y117.499 E0.05588
G1 X130.282 Y119.274 E0.05588
G1 X130.017 Y121.037 E0.05588
G1 X129.646 Y122.780 E0.05588
G1 X129.172 Y124.498 E0.05588
G1 X128.596 Y126.185 E0.05588
G1 X127.884 Y127.910 E0.05852
G1 X127.147 Y129.440 E0.05325
G1 X126.279 Y130.997 E0.05588
G1 X125.319 Y132.499 E0.05588
G1 X124.272 Y133.941 E0.05588
G1 X123.140 Y135.318 E0.05588
G1 X122.533 Y135.971 E0.02794
G1 X121.927 Y136.624 E0.02794
G1 X120.639 Y137.856 E0.05588
G1 X119.279 Y139.008 E0.05588
G1 X117.853 Y140.077 E0.05588
G1 X116.366 Y141.059 E0.05588
G1 X114.822 Y141.951 E0.05588
G1 X113.228 Y142.748 E0.05588
G1 X111.589 Y143.448 E0.05588
G1 X109.911 Y144.049 E0.05588
G1 X108.118 Y144.568 E0.05852
G1 X106.463 Y144.946 E0.05325
G1 X104.704 Y145.238 E0.05588
G1 X102.932 Y145.424 E0.05588
G1 X101.151 Y145.504 E0.05588
G1 X99.369 Y145.478 E0.05588
G1 X97.592 Y145.344 E0.05588
G1 X95.826 Y145.105 E0.05588
G1 X94.077 Y144.761 E0.05588
G1 X92.352 Y144.312 E0.05588
G1 X90.657 Y143.761 E0.05588
G1 X88.998 Y143.110 E0.05588
G1 X87.380 Y142.361 E0.05588
G1 X85.811 Y141.516 E0.05588
G1 X84.295 Y140.580 E0.05588
G1 X82.837 Y139.554 E0.05588
G1 X81.444 Y138.442 E0.05588
G1 X80.119 Y137.250 E0.05588
G1 X78.868 Y135.980 E0.05588
G1 X77.695 Y134.638 E0.05588
G1 X76.605 Y133.228 E0.05588
G1 X75.601 Y131.755 E0.05588
G1 X74.687 Y130.225 E0.05588
G1 X73.866 Y128.643 E0.05588
G1 X73.141 Y127.015 E0.05588
G1 X72.515 Y125.346 E0.05588
G1 X71.989 Y123.643 E0.05588
G1 X71.567 Y121.911 E0.05588
G1 X71.249 Y120.158 E0.05588
G1 X71.036 Y118.388 E0.05588
G1 X70.929 Y116.609 E0.05588
G1 X70.929 Y114.827 E0.05588
G1 X71.036 Y113.047 E0.05588
G1 X71.196 Y111.714 E0.04211
G1 X71.249 Y111.278 E0.01378
G1 X71.567 Y109.524 E0.05588
G1 X71.989 Y107.793 E0.05588
G1 X72.515 Y106.089 E0.05588
G1 X73.141 Y104.421 E0.05588
G1 X73.866 Y102.792 E0.05588
G1 X74.687 Y101.210 E0.05588
G1 X75.601 Y99.680 E0.05588
G1 X76.605 Y98.208 E0.05588
G1 X77.751 Y96.734 E0.05852
G1 X78.868 Y95.456 E0.05325
G1 X80.119 Y94.186 E0.05588
G1 X81.444 Y92.993 E0.05588
G1 X82.837 Y91.882 E0.05588
G1 X84.366 Y90.812 E0.05852
G1 X85.811 Y89.919 E0.05325
G1 X87.380 Y89.074 E0.05588
G1 X88.998 Y88.325 E0.05588
G1 X90.657 Y87.674 E0.05588
G1 X92.352 Y87.123 E0.05588
G1 X94.077 Y86.675 E0.05588
G1 X95.826 Y86.330 E0.05588
G1 X97.592 Y86.091 E0.05588
G1 X99.369 Y85.958 E0.05588
G1 X101.235 Y85.935 E0.05852
G1 X102.932 Y86.011 E0.05325
G1 X104.704 Y86.198 E0.05588
G1 X106.463 Y86.490 E0.05588
G1 X108.200 Y86.886 E0.05588
G1 X109.911 Y87.386 E0.05588
G1 X111.589 Y87.987 E0.05588
G1 X113.228 Y88.688 E0.05588
G1 X114.705 Y89.426 E0.05177
G1 X114.771 Y89.853 F10800.000
G1 F8640.000
G1 X116.366 Y90.376 E-0.44181
G1 X117.516 Y91.135 E-0.31819
G1 E-0.04000 F2100.00000
G1 Z0.800 F10800.000
G1 X77.885 Y134.082
G1 Z0.200
G1 E0.80000 F2100.00000
G1 F1200.000
G1 X80.583 Y136.779 E0.12000
G1 X81.870 Y137.939 E0.05449
G1 X83.233 Y139.025 E0.05482
G1 X83.675 Y139.336 E0.01698
G1 X77.056 Y132.718 E0.29439
G1 X76.157 Y131.400 E0.05016
G1 X75.986 Y131.113 E0.01052
G1 X85.296 Y140.423 E0.41411
G1 X86.141 Y140.945 E0.03123
G1 X86.600 Y141.192 E0.01641
G1 X75.212 Y129.803 E0.50656
G1 X74.634 Y128.691 E0.03941
G1 X87.747 Y141.804 E0.58323
G1 X88.744 Y142.265 E0.03455
G1 X74.161 Y127.682 E0.64863
G1 X73.736 Y126.723 E0.03298
G1 X89.684 Y142.671 E0.70932
G1 X90.564 Y143.016 E0.02975
G1 X73.415 Y125.867 E0.76278
G1 X73.106 Y125.023 E0.02829
G1 X91.388 Y143.305 E0.81320
G1 X92.181 Y143.563 E0.02620
G1 X72.867 Y124.249 E0.85905
G1 X72.628 Y123.476 E0.02546
G1 X92.935 Y143.782 E0.90321
G1 X93.658 Y143.970 E0.02349
G1 X72.455 Y122.767 E0.94307
G1 X72.282 Y122.060 E0.02291
G1 X94.368 Y144.145 E0.98235
G1 X95.034 Y144.277 E0.02135
G1 X72.142 Y121.384 E1.01823
G1 X72.023 Y120.731 E0.02089
G1 X95.700 Y144.408 E1.05313
G1 X96.336 Y144.508 E0.02023
G1 X71.905 Y120.077 E1.08667
G1 X71.830 Y119.468 E0.01931
G1 X96.954 Y144.592 E1.11750
M73 Q0 S141
M73 P0 R141
G1 X97.573 Y144.676 E0.01964
G1 X71.757 Y118.860 E1.14827
G1 X71.689 Y118.257 E0.01909
G1 X98.157 Y144.725 E1.17728
G1 X98.735 Y144.768 E0.01824
G1 X71.655 Y117.688 E1.20451
G1 X71.621 Y117.119 E0.01793
G1 X99.314 Y144.812 E1.23175
G1 X99.862 Y144.825 E0.01725
G1 X71.589 Y116.552 E1.25755
G1 X71.589 Y116.017 E0.01682
G1 X100.405 Y144.833 E1.28170
G1 X100.948 Y144.841 E0.01708
G1 X71.589 Y115.482 E1.30585
G1 X71.589 Y114.947 E0.01682
G1 X101.471 Y144.829 E1.32912
G1 X101.983 Y144.806 E0.01612
G1 X71.614 Y114.437 E1.35080
G1 X71.644 Y113.932 E0.01590
G1 X102.495 Y144.783 E1.37222
G1 X103.000 Y144.754 E0.01592
G1 X71.674 Y113.428 E1.39335
G1 X71.714 Y112.933 E0.01561
G1 X103.484 Y144.703 E1.41309
G1 X103.968 Y144.652 E0.01531
G1 X71.772 Y112.455 E1.43207
G1 X71.829 Y111.978 E0.01513
G1 X104.452 Y144.601 E1.45104
G1 X104.919 Y144.533 E0.01485
G1 X71.886 Y111.500 E1.46927
G1 X71.962 Y111.041 E0.01464
G1 X105.378 Y144.457 E1.48631
G1 X105.837 Y144.381 E0.01463
G1 X72.044 Y110.588 E1.50306
G1 X72.126 Y110.136 E0.01447
G1 X106.296 Y144.305 E1.51981
G1 X106.733 Y144.207 E0.01410
G1 X72.209 Y109.683 E1.53561
G1 X72.313 Y109.252 E0.01395
G1 X107.169 Y144.108 E1.55037
G1 X107.604 Y144.009 E0.01405
G1 X72.417 Y108.822 E1.56507
G1 X72.522 Y108.392 E0.01392
G1 X108.036 Y143.905 E1.57959
G1 X108.451 Y143.785 E0.01358
G1 X72.628 Y107.962 E1.59337
G1 X72.754 Y107.553 E0.01346
G1 X108.865 Y143.665 E1.60621
G1 X109.280 Y143.545 E0.01358
G1 X72.880 Y107.145 E1.61906
G1 X73.006 Y106.736 E0.01346
G1 X109.695 Y143.425 E1.63190
G1 X110.090 Y143.285 E0.01317
G1 X73.132 Y106.327 E1.64384
M73 Q1 S140
M73 P1 R140
G1 X73.277 Y105.937 E0.01309
G1 X110.484 Y143.143 E1.65492
G1 X110.877 Y143.002 E0.01316
G1 X73.423 Y105.548 E1.66594
G1 X73.569 Y105.159 E0.01307
G1 X111.271 Y142.861 E1.67696
G1 X111.650 Y142.705 E0.01288
G1 X73.715 Y104.770 E1.68730
G1 X73.875 Y104.395 E0.01282
G1 X112.024 Y142.545 E1.69685
G1 X112.399 Y142.384 E0.01282
G1 X74.040 Y104.025 E1.70619
G1 X74.204 Y103.655 E0.01274
G1 X112.774 Y142.224 E1.71553
G1 X113.139 Y142.055 E0.01266
G1 X74.369 Y103.285 E1.72444
G1 X74.542 Y102.922 E0.01262
G1 X113.496 Y141.876 E1.73262
G1 X113.852 Y141.698 E0.01254
G1 X74.725 Y102.570 E1.74035
G1 X74.907 Y102.218 E0.01248
G1 X114.209 Y141.519 E1.74808
G1 X114.563 Y141.338 E0.01250
G1 X75.090 Y101.866 E1.75569
G1 X75.274 Y101.515 E0.01247
G1 X114.902 Y141.143 E1.76261
G1 X115.241 Y140.947 E0.01232
G1 X75.474 Y101.180 E1.76879
G1 X75.674 Y100.845 E0.01227
G1 X115.580 Y140.751 E1.77498
G1 X115.919 Y140.555 E0.01232
G1 X75.874 Y100.510 E1.78116
G1 X76.074 Y100.175 E0.01227
G1 X116.246 Y140.347 E1.78682
G1 X116.569 Y140.135 E0.01214
G1 X76.284 Y99.850 E1.79181
G1 X76.501 Y99.532 E0.01211
G1 X116.891 Y139.922 E1.79650
G1 X117.213 Y139.709 E0.01214
G1 X76.718 Y99.214 E1.80119
G1 X76.935 Y98.896 E0.01211
G1 X117.532 Y139.494 E1.80573
G1 X117.838 Y139.264 E0.01202
G1 X77.152 Y98.579 E1.80964
M73 Q2 S139
M73 P2 R139
G1 X77.386 Y98.278 E0.01199
G1 X118.143 Y139.035 E1.81283
G1 X118.449 Y138.806 E0.01202
G1 X77.620 Y97.977 E1.81602
G1 X77.854 Y97.676 E0.01199
G1 X118.755 Y138.577 E1.81921
G1 X118.868 Y138.492 E0.00443
G1 X119.050 Y138.337 E0.00754
G1 X78.088 Y97.375 E1.82195
G1 X78.327 Y97.078 E0.01197
G1 X119.340 Y138.092 E1.82424
G1 X119.629 Y137.847 E0.01194
G1 X78.576 Y96.793 E1.82602
G1 X78.825 Y96.507 E0.01192
G1 X119.919 Y137.601 E1.82780
G1 X120.208 Y137.355 E0.01193
G1 X79.075 Y96.222 E1.82956
G1 X79.324 Y95.936 E0.01192
G1 X120.481 Y137.094 E1.83063
G1 X120.755 Y136.832 E0.01190
G1 X79.588 Y95.665 E1.83106
G1 X79.853 Y95.396 E0.01190
G1 X121.028 Y136.571 E1.83142
G1 X121.302 Y136.309 E0.01190
G1 X80.119 Y95.126 E1.83177
G1 X80.384 Y94.857 E0.01190
G1 X121.568 Y136.041 E1.83182
G1 X121.826 Y135.763 E0.01190
G1 X80.654 Y94.592 E1.83127
G1 X80.936 Y94.338 E0.01191
G1 X122.083 Y135.486 E1.83020
G1 X122.341 Y135.208 E0.01190
G1 X81.217 Y94.085 E1.82913
G1 X81.499 Y93.832 E0.01191
G1 X122.598 Y134.931 E1.82806
G1 X122.842 Y134.640 E0.01194
G1 X81.780 Y93.578 E1.82640
G1 X82.073 Y93.336 E0.01195
G1 X123.084 Y134.347 E1.82413
G1 X123.325 Y134.053 E0.01195
G1 X82.370 Y93.098 E1.82163
